visakhpadmanabhan7/robot_simulation_webots/analysis_and_modelling/joint_data.csv
#,timestamp,shoulder_pan_joint_angle,shoulder_lift_joint_angle,elbow_joint_angle,wrist_1_joint_angle,wrist_2_joint_angle,wrist_3_joint_angle,shoulder_pan_joint_velocity,shoulder_lift_joint_velocity,elbow_joint_velocity,wrist_1_joint_velocity,wrist_2_joint_velocity,wrist_3_joint_velocity
1,2024-10-27T10:39:03.552844,0.07882390651956259,0.45897985617523923,0.7161525240266077,0.7814327014075365,0.6373286175070453,0.3224528452322972,2.4632470787363308,14.343120505476225,22.37976637583149,24.419771918985514,19.916519297095164,10.076651413509287
2,2024-10-27T10:39:03.885122,0.15685185190815545,0.5206258676522463,0.7448986026001652,0.769576358538298,0.5880467506920098,0.24895049088605173,2.438373293393527,1.92643785865647,0.8983149554236715,-0.37051071466370417,-1.5400583379698574,-2.2969485733201718
3,2024-10-27T10:39:04.211302,0.23329591262327654,0.577014616799509,0.7661227203833595,0.749948859737354,0.5328268077600832,0.17293424293784485,2.388876897347534,1.7621484108519616,0.6632536807248228,-0.6133593375294982,-1.7256232166227083,-2.375507748381465
4,2024-10-27T10:39:04.540471,0.3073841591360636,0.6275766919432474,0.7796105569556425,0.7227484028209955,0.47222639781957926,0.09517171087774823,2.3152577035245954,1.5800648482418231,0.4214948928838447,-0.850014278636204,-1.8937628106407474,-2.4300791268780193
5,2024-10-27T10:39:04.873519,0.3783684508494601,0.6718015189658791,0.7852259126013892,0.6882496570793659,0.40685746175192916,0.016448138113486527,2.2182591160436402,1.3820258444572422,0.17547986392958334,-1.0780858044259247,-2.0427792521140655,-2.4601116488831782
6,2024-10-27T10:39:05.207593,0.4455319907965551,0.7092425170661197,0.7829120836500009,0.6468009896752968,0.33738009285344583,-0.062441527390823266,2.098860623346719,1.1700311906325187,-0.07230715473088498,-1.2952708563771613,-2.1711677780776037,-2.465302047009681
7,2024-10-27T10:39:05.540738,0.5081965638320114,0.739521608316747,0.772692435067645,0.5988209478445301,0.2644958712356336,-0.1407006604722172,1.9582679073580096,0.9462216015821007,-0.3193640181986222,-1.4993763072114579,-2.2776319255566317,-2.44559790879356
8,2024-10-27T10:39:05.870332,0.5657293852255689,0.7623330354826683,0.7546701645186205,0.5447940324199455,0.18894077929305153,-0.21753900306272292,1.797900668548673,0.7128570989350415,-0.5631959546570156,-1.6883411070182686,-2.36109662320569,-2.401198205953304
9,2024-10-27T10:39:06.202094,0.6175494905007597,0.7774464495470981,0.7290272602788479,0.4852658053586066,0.11147776977808838,-0.29218064418849155,1.61937828984971,0.4722941895134304,-0.8013407574928917,-1.8602570956668396,-2.4207190473425966,-2.3325512851802674
10,2024-10-27T10:39:06.534618,0.6631336019944601,0.7847092357681041,0.696022663524441,0.420837380675645,0.032889061529981035,-0.3638718550924592,1.4245034841781403,0.22696206940643981,-1.0313936485752173,-2.0133882713425506,-2.4558971327533565,-2.24035034074899
11,2024-10-27T10:39:06.866851,0.7020214128969621,0.7840480547770899,0.6559896535525042,0.3521593544153529,-0.046031759344458,-0.43188870036173754,1.2152440907031863,-0.020661905969193723,-1.2510315616230265,-2.146188320634131,-2.466275652326222,-2.125526414664951
12,2024-10-27T10:39:07.199277,0.7338202354145033,0.7754695831572477,0.6093324823381081,0.2799252349544213,-0.12448775307639494,-0.4955443482028264,0.9937132036731611,-0.26807723812007056,-1.4580366004498755,-2.257316233154111,-2.451749804123027,-1.9892389950340248
13,2024-10-27T10:39:07.533270,0.7582089661172721,0.7590604460236468,0.5565222924115775,0.20486443997790874,-0.20168667370569426,-0.5541960060457377,0.7621478344615247,-0.5127855354250285,-1.650318435204081,-2.345649843016015,-2.4124662696656016,-1.8328643075909772
14,2024-10-27T10:39:07.862519,0.7749413284309367,0.7349863422857659,0.49809235927721907,0.12773493084422913,-0.2768489691537174,-0.6072514114415367,0.522886322302019,-0.7523157418087781,-1.8259354104487016,-2.41029716042749,-2.348821732750724,-1.6579814186187203
15,2024-10-27T10:39:08.195401,0.7838483595291283,0.7034903714255305,0.43463270641539103,0.0493155587170945,-0.3492156531137371,-0.654174812708436,0.27834472181849046,-0.9842490893823561,-1.9831141519321276,-2.450605378972959,-2.2614588737506183,-1.4663562895906048
16,2024-10-27T10:39:08.533803,0.7848401165143234,0.6648905786870023,0.36678414724543723,-0.029601800247081075,-0.41805596926888594,-0.6944923789340832,0.03099240578734519,-1.2062435230790054,-2.1202674740610545,-2.466167467630484,-2.1512598798483995,-1.2599239445514736
17,2024-10-27T10:39:08.863364,0.777906584658168,0.619576743466306,0.29523181421354244,-0.10822024123771538,-0.4826747704446255,-0.7277969847040212,-0.2166728705048566,-1.4160573506467586,-2.23601040724671,-2.45682628095732,-2.0193375367418587,-1.0407689303105612
18,2024-10-27T10:39:09.193713,0.7631177785298648,0.5680064433325241,0.2206982403485593,-0.18574587790777203,-0.5424195381813056,-0.753752321240296,-0.4621501915094725,-1.6115718791806808,-2.329174183280721,-2.422676145939268,-1.8670239917712526,-0.8111042667585867
19,2024-10-27T10:39:09.528960,0.7406230349914313,0.5107004334249463,0.14393606314802262,-0.26139585901112905,-0.5966869718434086,-0.7720962924360751,-0.7029607355760488,-1.790812809611812,-2.3988180375167776,-2.364061909479913,-1.695857301940722,-0.5732490998680992
20,2024-10-27T10:39:09.861466,0.7106495051991383,0.44823738788535794,0.06572042447026019,-0.3344062736078747,-0.6449290807288784,-0.7826436614932326,-0.9366728060091574,-1.9519701731121348,-2.444238708680074,-2.2815754561483,-1.507565902670932,-0.32960528303617076
21,2024-10-27T10:39:10.190757,0.6734998608388495,0.3812480564262106,-0.013158856821766434,-0.40403986501103467,-0.6866587176606159,-0.7852879214372452,-1.1609263862590233,-2.0934166080983516,-2.4649775403758296,-2.1760497313487464,-1.3040511541167952,-0.08263312325039456
22,2024-10-27T10:39:10.521377,0.6295492377576168,0.3104088950414471,-0.09190526042451586,-0.46959347557955744,-0.7214544981821326,-0.7800023706210044,-1.373456971288524,-2.2137237932738665,-2.4608251125859257,-2.048550330266342,-1.0873681412973986,0.1651734630075262
23,2024-10-27T10:39:10.857130,0.5792414478546365,0.2364352351768476,-0.16972360782884013,-0.5304051471802939,-0.7489650556834767,-0.7668403823571414,-1.5721184344681345,-2.3116768707687316,-2.4318233563851317,-1.9003647375230113,-0.8597049219170031,0.41131213324572014
24,2024-10-27T10:39:11.190124,0.5230844974837661,0.16007406033738805,-0.24582809200556383,-0.5858608056187414,-0.7689125894893302,-0.7459348659561296,-1.7549046990896993,-2.386286713733109,-2.3782651305226135,-1.7329893262014853,-0.62336043143292,0.6532973875316179
25,2024-10-27T10:39:11.521433,0.4616454576226143,0.08209646307317288,-0.3194502124581766,-0.6354004615394074,-0.7810956700807911,-0.71749692461258,-1.9199699956609917,-2.436799914506722,-2.300691264144148,-1.5481142475208112,-0.3807212684831526,0.8886856669859242
26,2024-10-27T10:39:11.849720,0.3955447376090691,0.003289858513053818,-0.3898465355147472,-0.6785238651793006,-0.7853912731238162,-0.6818137236923542,-2.065647500423285,-2.4627063925037187,-2.1998850955178284,-1.3476063637466613,-0.1342375950945349,1.1151000287570556
27,2024-10-27T10:39:12.182665,0.3254498202688761,-0.07554996692659721,-0.45630620149589074,-0.7147955578730474,-0.7817560217647671,-0.63924559094645,-2.1904661668810377,-2.463744544989101,-2.0768645619107415,-1.1334903966795888,0.11360160497028386,1.3302541483095098
28,2024-10-27T10:39:12.514913,0.2520685216967298,-0.15362689136609714,-0.5181581029516745,-0.7438492692997084,-0.7702266246484045,-0.5902223779336113,-2.2931655803795703,-2.4399038887343707,-1.9328719204932416,-0.9079284820831561,0.3602936598863304,1.5319754066512057
29,2024-10-27T10:39:12.847216,0.176141843753392,-0.23015249667415127,-0.5747776614818494,-0.7653916160680364,-0.7509195052352414,-0.535239119393885,-2.372708685729303,-2.3914251658766896,-1.769361204067963,-0.6731983365102495,0.6033474816613463,1.7182268293664453
30,2024-10-27T10:39:13.180701,0.0984364914540682,-0.30435402988736643,-0.6255931347073235,-0.7792050642919988,-0.7240296261613918,-0.4748510344046325,-2.428292259353875,-2.3187979129129794,-1.5879835382960692,-0.4316702569988247,0.8403087210578039,1.887127655914146
31,2024-10-27T10:39:13.508508,0.0197371308072001,-0.37548220644343355,-0.6700913897052931,-0.7851501262405708,-0.6898285205124937,-0.40966791979713685,-2.459355020214626,-2.2227555173770956,-1.3905704686865508,-0.1857831858928757,1.068784551528065,2.0369723314842374
32,2024-10-27T10:39:13.842098,-0.05916153471623517,-0.44281877643118733,-0.7078230846080651,-0.7831667688801055,-0.64866154989183,-0.34034799244891806,-2.46558329760735,-2.1042678121173037,-1.1791154657116225,0.061979917514540184,1.286467831895738,2.166247729631835
33,2024-10-27T10:39:14.174933,-0.13746278907138512,-0.5056837774538158,-0.738407206041977,-0.7732750200858688,-0.600944416970592,-0.267591242632053,-2.4469141985984337,-1.9645312819571368,-0.9557537948097451,0.3091171498198969,1.491160403788687,2.273648431777032
34,2024-10-27T10:39:14.506727,-0.21437594885108596,-0.5634424008660515,-0.7615349165875057,-0.7555747664012353,-0.5471589677364199,-0.19213236553518379,-2.4035362431156493,-1.804956981632364,-0.722740954547773,0.5531329276447952,1.6807952885678752,2.35808990927716
35,2024-10-27T10:39:14.840708,-0.2891243475800535,-0.6155114020503115,-0.77697267340904,-0.730244744386766,-0.4878483258289863,-0.11473334233645506,-2.335887460280234,-1.6271562870081253,-0.482429900672945,0.7915631879521656,1.853457559607299,2.4187194749602705
36,2024-10-27T10:39:15.173481,-0.36095317846657204,-0.6613649900010345,-0.784564586562502,-0.6975407357444896,-0.4236114080959304,-0.03617574574345478,-2.2446509652037023,-1.4329246234600934,-0.23724728604568984,1.0220002700711368,2.0074036791579952,2.4549248935312566
37,2024-10-27T10:39:15.506126,-0.4291371164158434,-0.7005401367444016,-0.7842339931667095,-0.657792984442963,-0.3550968767508662,0.042747152301439134,-2.1307480609147427,-1.2242233357302288,0.010331043618517423,1.2421172281727149,2.1410791045332687,2.46634056390295
38,2024-10-27T10:39:15.836887,-0.4929876423381602,-0.732641252979089,-0.775984231542545,-0.6114028619248906,-0.28299658920438503,0.12123839105419824,-1.995328935072399,-1.0031598823339793,0.25780505075513926,1.449691328689761,2.2531339858275348,2.45285121102372
39,2024-10-27T10:39:16.167078,-0.5518599957912885,-0.7573441827235954,-0.7598986075027064,-0.5588388140719327,-0.208038611711418,0.19850536865166313,-1.8397610454102578,-0.7719665545158239,0.5026757512449557,1.642626495404932,2.342436796655218,2.4145930499207755
40,2024-10-27T10:39:16.492177,-0.6051596857495172,-0.774399476632337,-0.7361395531324381,-0.5006316308540948,-0.1309798673829213,0.2737678457782426,-1.6656153111946437,-0.5329779346481748,0.742470449070886,1.818974475557433,2.4080857602655192,2.351952410205606
41,2024-10-27T10:39:16.822927,-0.6523484937538434,-0.7836349109266649,-0.7049469865558518,-0.4373690864306446,-0.052598492802008096,0.34626582449602006,-1.4746502501351935,-0.2886073216977478,0.9747677055183214,1.9769545132328168,2.449417955653536,2.2655618349305437
42,2024-10-27T10:39:17.156323,-0.6929499088236944,-0.7849572265047345,-0.6666358892508573,-0.3696900038266092,0.02631401957283684,0.4152672226781257,-1.268794220932844,-0.041322361814675294,1.1972217907810767,2.1149713313761036,2.466016011713902,2.1562936931907997
43,2024-10-27T10:39:17.487856,-0.7265539392486248,-0.778353070668748,-0.6215931253768959,-0.29827780411956667,0.10496081387172917,0.4800752665491812,-1.0501259507790717,0.20637986987457801,1.4075863710612904,2.2316312408450774,2.457712321840383,2.0252513709704822
44,2024-10-27T10:39:17.822607,-0.7528212526706832,-0.7638891319600429,-0.570273535233798,-0.2238536052768152,0.1825477174368856,0.5400355266832276,-0.8208535444393318,0.4519980846470372,1.6037371919718206,2.3257562138359975,2.424590736411153,1.8737581291889622
45,2024-10-27T10:39:18.152144,-0.771486602651041,-0.7417114667404662,-0.5131953422998804,-0.14716894033062766,0.25829126035116085,0.5945425264098384,-0.5832921868861788,0.6930520381117731,1.7836935291849227,2.3963957795683584,2.366985716071099,1.703343741456585
46,2024-10-27T10:39:18.484250,-0.7823615071195192,-0.7120440243201945,-0.4509349202288674,-0.06899816842322201,0.33142658689065163,0.6430458558969728,-0.3398407646399458,0.9271075756334879,1.9456381897191548,2.4428366221064244,2.285478954359085,1.5157290464729496
47,2024-10-27T10:39:18.816508,-0.7853361516601358,-0.6751863855252042,-0.3841209726483057,0.009869344645564115,0.40121517901183057,0.6850557301707683,-0.09295764189426797,1.1518012123434482,2.087935861892551,2.464609783399564,2.18089350378684,1.3128085710561062
48,2024-10-27T10:39:19.146021,-0.7803804984133462,-0.6315107375402657,-0.31342818453168847,0.08863719740730794,0.46695231388165764,0.7201479349475739,0.15486416396217464,1.364863999529327,2.2091496286442864,2.4614953988044923,2.0542854646820943,1.096631399275175
49,2024-10-27T10:39:19.481722,-0.7675445893973297,-0.5814581155753922,-0.2395704092525065,0.1665099947599825,0.5279741801448236,0.7479681103353748,0.40112215675051527,1.5641444364022947,2.3080554774744346,2.4335249172710776,1.9069333207239332,0.8693804808687775
50,2024-10-27T10:39:19.811357,-0.746958041185389,-0.525533949307268,-0.16329346011712673,0.24270137984068313,0.5836645810682622,0.7682353291479516,0.643329631623147,1.7476301958788776,2.383654660480616,2.380980783771893,1.7403250288574574,0.6333505878930231
51,2024-10-27T10:39:20.140944,-0.7188287360421957,-0.46430295906753877,-0.08536757916735471,0.3164419746305225,0.6334611568748413,0.7807449336980614,0.879040785724791,1.9134684449915382,2.4351837796803735,2.304393587182478,1.5561429939555935,0.3909251421909326
52,2024-10-27T10:39:20.474513,-0.683440722735741,-0.3983834533160805,-0.0065796593024550435,0.3869871491077358,0.6768610634332862,0.7853706024238165,1.1058754158267081,2.0599845547330693,2.4621224957781123,2.204536702412914,1.3562470799514033,0.14455214767984656
53,2024-10-27T10:39:20.804712,-0.6411513482225255,-0.3284410849831757,0.07227470173861708,0.4536245404963478,0.713426049961143,0.7820656254795239,1.3215429535379912,2.185699010403288,2.464198782533519,2.0824184808941384,1.1426558289955313,-0.10328052950914622
54,2024-10-27T10:39:21.136026,-0.5923876491701257,-0.25518212972882354,0.15039923529617016,0.5156812466812972,0.7427868844662958,0.770863376410121,1.5238655953874942,2.289342351698503,2.4413916736735315,1.9392720682796671,0.9175260782860245,-0.3500702834188376
55,2024-10-27T10:39:21.465572,-0.5376420397554308,-0.1793463539951184,0.22700504248365164,0.5725306211511352,0.7646470822390827,0.7518769751462538,1.7108002942092129,2.3698679916782837,2.393931474608794,1.7765429521824345,0.6831311803995905,-0.5933250394958492
56,2024-10-27T10:39:21.799207,-0.47746733928300733,-0.10169954486983904,0.30131856046181477,0.6235986008532175,0.7787858997448223,0.7252981457230565,1.8804593897632313,2.426462785164978,2.3222974368175957,1.5958743656900711,0.44183804705436,-0.830588419474916
57,2024-10-27T10:39:22.130235,-0.4124711898345359,-0.02302577719444437,0.37258937384999685,0.6683695030629144,0.785060563684533,0.6913952802573587,2.0311296702647303,2.458555239856081,2.227212918380688,1.3990906940530277,0.1960832481159613,-1.059464545803054
58,2024-10-27T10:39:22.459933,-0.34330992031970997,0.05588050399704384,0.4400977923951451,0.7063912327302478,0.7834077127148553,0.6505107287332045,2.161289672338308,2.465821287234004,2.109638079535882,1.1881790521041682,-0.051651592802428405,-1.2776422351298198
59,2024-10-27T10:39:22.792398,-0.2706819188891933,0.13422250575701714,0.5031621183795526,0.7372798477203544,0.7738440372687462,0.6030573419633373,2.269625044703644,2.4481875549991634,1.9707601870127318,0.9652692184408284,-0.2988648576909105,-1.4829183365583491
60,2024-10-27T10:39:23.121879,-0.19532058063479604,0.2112091332124007,0.5611455303812567,0.7607234358481215,0.7564661110160531,0.5495143026357208,2.3550418204499284,2.405832107980751,1.8119816250532639,0.7326121289927278,-0.543060195396662,-1.6732199789880258
61,2024-10-27T10:39:23.452220,-0.11798690179074277,0.2860629780138175,0.6134625138751328,0.7764852645568404,0.7314494156658757,0.49042228654302333,2.416677463876663,2.3391826500442736,1.6349057341836282,0.492557147147465,-0.781771729693042,-1.846625502896793
62,2024-10-27T10:39:23.785081,-0.039461795219548554,0.35802816857869335,0.6595847737386801,0.7844061714355232,0.699046568958229,0.4263780028568296,2.453909580349817,2.2489122051523673,1.4413206207358498,0.2475283399588355,-1.0125889596139586,-2.001383865193553
63,2024-10-27T10:39:24.115085,0.03946179521954817,0.42637800285682975,0.6990465689582285,0.7844061714355232,0.6595847737386807,0.3580281685786932,2.46636220122177,2.1359323211917607,1.2331811006108864,0,-1.233181100610883,-2.1359323211917607
64,2024-10-27T10:39:24.447124,0.1179869017907424,0.490422286543023,0.7314494156658755,0.7764852645568406,0.6134625138751331,0.28606297801381797,2.453909580349817,2.0013838651935374,1.012588959613969,-0.24752833995882856,-1.4413206207358635,-2.2489122051523482
65,2024-10-27T10:39:24.782514,0.19532058063479565,0.5495143026357209,0.7564661110160528,0.7607234358481215,0.5611455303812576,0.2112091332124005,2.4166774638766624,1.8466255028968068,0.7817717296930384,-0.49255714714747195,-1.6349057341836073,-2.3391826500442936
66,2024-10-27T10:39:25.114522,0.27068191888919363,0.6030573419633378,0.7738440372687461,0.737279847720354,0.5031621183795524,0.1342225057570169,2.3550418204499346,1.6732199789880282,0.5430601953966651,-0.7326121289927331,-1.811981625053286,-2.405832107980735
67,2024-10-27T10:39:25.446641,0.3433099203197103,0.6505107287332046,0.7834077127148553,0.7063912327302477,0.44009779239514546,0.055880503997042925,2.269625044703644,1.4829183365583352,0.2988648576909139,-0.9652692184408214,-1.9707601870127145,-2.448187554999185
68,2024-10-27T10:39:25.782257,0.4124711898345362,0.6913952802573592,0.785060563684533,0.6683695030629146,0.3725893738499967,-0.02302577719444459,2.161289672338307,1.2776422351298302,0.051651592802428405,-1.1881790521041578,-2.1096380795358973,-2.465821287233983
69,2024-10-27T10:39:26.114310,0.47746733928300705,0.7252981457230566,0.7787858997448224,0.6235986008532177,0.3013185604618158,-0.10169954486983926,2.031129670264713,1.0594645458030438,-0.19608324811595784,-1.3990906940530277,-2.22721291838065,-2.458555239856081
70,2024-10-27T10:39:26.446600,0.537642039755431,0.7518769751462538,0.7646470822390825,0.572530621151135,0.22700504248365208,-0.17934635399511928,1.8804593897632471,0.8305884194749126,-0.44183804705437035,-1.5958743656900851,-2.322297436817615,-2.4264627851649982
71,2024-10-27T10:39:26.784738,0.5923876491701259,0.7708633764101213,0.742786884466296,0.5156812466812967,0.15039923529616994,-0.25518212972882376,1.7108002942092129,0.5933250394958561,-0.6831311803995767,-1.776542952182445,-2.3939314746088147,-2.369867991678263
72,2024-10-27T10:39:27.116881,0.6411513482225257,0.7820656254795239,0.7134260499611426,0.45362454049634765,0.07227470173861757,-0.32844108498317653,1.5238655953874942,0.3500702834188307,-0.9175260782860454,-1.9392720682796551,-2.4413916736735097,-2.2893423516985223
73,2024-10-27T10:39:27.448749,0.6834407227357407,0.7853706024238165,0.6768610634332864,0.3869871491077356,-0.006579659302454563,-0.39838345331608016,1.3215429535379863,0.10328052950914694,-1.1426558289955184,-2.0824184808941544,-2.464198782533536,-2.1856990104032668
74,2024-10-27T10:39:27.784651,0.7188287360421954,0.7807449336980615,0.6334611568748416,0.3164419746305223,-0.08536757916735423,-0.4643029590675383,1.1058754158267081,-0.1445521476798431,-1.3562470799514,-2.2045367024129123,-2.4621224957781123,-2.0599845547330657
75,2024-10-27T10:39:28.115542,0.7469580411853889,0.7682353291479516,0.5836645810682625,0.2427013798406836,-0.16329346011712556,-0.5255339493072683,0.8790407857247945,-0.39092514219093605,-1.5561429939555969,-2.304393587182458,-2.435183779680352,-1.913468444991559
76,2024-10-27T10:39:28.445536,0.7675445893973296,0.7479681103353749,0.527974180144824,0.16650999475998365,-0.239570409252506,-0.5814581155753918,0.643329631623147,-0.6333505878930197,-1.7403250288574506,-2.380980783771871,-2.383654660480637,-1.7476301958788603
77,2024-10-27T10:39:28.780768,0.7803804984133462,0.720147934947574,0.466952313881658,0.08863719740730842,-0.3134281845316874,-0.6315107375402657,0.40112215675051877,-0.8693804808687775,-1.9069333207239365,-2.433524917271099,-2.3080554774744173,-1.5641444364023052
78,2024-10-27T10:39:29.109172,0.7853361516601358,0.6850557301707685,0.401215179011831,0.009869344645563898,-0.38412097264830525,-0.6751863855252039,0.15486416396217464,-1.0966313992751717,-2.0542854646820907,-2.4614953988045145,-2.2091496286443055,-1.3648639995293201
79,2024-10-27T10:39:29.439775,0.7823615071195192,0.6430458558969732,0.3314265868906521,-0.06899816842322154,-0.45093492022886633,-0.7120440243201945,-0.09295764189426797,-1.3128085710561026,-2.18089350378684,-2.464609783399543,-2.087935861892532,-1.1518012123434551
80,2024-10-27T10:39:29.772149,0.7714866026510409,0.5945425264098387,0.25829126035116,-0.14716894033062788,-0.5131953422998801,-0.7417114667404665,-0.3398407646399493,-1.5157290464729496,-2.285478954359125,-2.442836622106446,-1.9456381897191775,-0.9271075756334983
81,2024-10-27T10:39:30.107609,0.7528212526706836,0.540035526683229,0.18254771743688605,-0.22385360527681405,-0.5702735352337968,-0.7638891319600428,-0.5832921868861649,-1.703343741456554,-2.366985716071059,-2.3963957795683157,-1.783693529184895,-0.6930520381117592
82,2024-10-27T10:39:30.441044,0.7265539392486247,0.48007526654918165,0.10496081387172827,-0.29827780411956684,-0.6215931253768957,-0.7783530706687481,-0.82085354443934,-1.8737581291889769,-2.4245907364111785,-2.3257562138360224,-1.6037371919718406,-0.45199808464704105
83,2024-10-27T10:39:30.774377,0.6929499088236948,0.41526722267812616,0.02631401957283732,-0.3696900038266088,-0.6666358892508567,-0.7849572265047345,-1.0501259507790577,-2.0252513709704822,-2.4577123218403405,-2.23163124084506,-1.40758637106128,-0.20637986987457455
84,2024-10-27T10:39:31.107878,0.6523484937538433,0.34626582449602045,-0.05259849280200901,-0.43736908643064476,-0.7049469865558515,-0.7836349109266648,-1.2687942209328578,-2.1562936931908014,-2.466016011713946,-2.114971331376121,-1.1972217907810871,0.041322361814678764
85,2024-10-27T10:39:31.441095,0.6051596857495165,0.27376784577824176,-0.13097986738292222,-0.5006316308540955,-0.7361395531324382,-0.7743994766323367,-1.4746502501352108,-2.265561834930582,-2.449417955653536,-1.9769545132328326,-0.9747677055183318,0.2886073216977547
86,2024-10-27T10:39:31.773364,0.5518599957912885,0.19850536865166357,-0.20803861171141821,-0.5588388140719323,-0.7598986075027062,-0.7573441827235954,-1.6656153111946228,-2.3519524102055662,-2.4080857602654975,-1.8189744755573984,-0.7424704490708756,0.5329779346481643
87,2024-10-27T10:39:32.107054,0.49298764233815967,0.12123839105419805,-0.28299658920438586,-0.6114028619248911,-0.7759842315425451,-0.7326412529790887,-1.839761045410275,-2.4145930499207955,-2.342436796655237,-1.6426264954049634,-0.5026757512449661,0.7719665545158343
88,2024-10-27T10:39:32.440015,0.42913711641584457,0.04274715230144101,-0.35509687675086515,-0.6577929844429619,-0.7842339931667093,-0.7005401367444023,-1.9953289350723729,-2.4528512110236895,-2.2531339858275072,-1.4496913286897293,-0.25780505075513244,1.003159882333962
89,2024-10-27T10:39:32.774127,0.3609531784665724,-0.0361757457434543,-0.42361140809592995,-0.6975407357444894,-0.7845645865625022,-0.6613649900010344,-2.130748060914754,-2.466340563902976,-2.141079104533273,-1.242117228172734,-0.01033104361852776,1.2242233357302446
90,2024-10-27T10:39:33.106807,0.2891243475800533,-0.11473334233645459,-0.487848325828987,-0.7302447443867661,-0.7769726734090401,-0.6155114020503109,-2.2446509652037197,-2.454924893531257,-2.0074036791580316,-1.0220002700711472,0.23724728604568984,1.4329246234601107
91,2024-10-27T10:39:33.438152,0.21437594885108666,-0.19213236553518262,-0.5471589677364196,-0.7555747664012352,-0.761534916587506,-0.5634424008660518,-2.335887460280205,-2.4187194749602487,-1.8534575596072662,-0.7915631879521586,0.48242990067293806,1.627156287008094
92,2024-10-27T10:39:33.769470,0.13746278907138515,-0.2675912426320525,-0.6009444169705921,-0.7732750200858688,-0.7384072060419772,-0.5056837774538155,-2.40353624311567,-2.3580899092771808,-1.6807952885678892,-0.5531329276447986,0.7227409545477764,1.8049569816323814
93,2024-10-27T10:39:34.095510,0.0591615347162359,-0.340347992448917,-0.6486615498918298,-0.7831667688801054,-0.7078230846080656,-0.44281877643118767,-2.446914198598412,-2.2736484317770147,-1.4911604037886765,-0.30911714981989347,0.9557537948097347,1.9645312819571195
94,2024-10-27T10:39:34.428681,-0.01973713080719972,-0.4096679197971364,-0.6898285205124934,-0.7851501262405708,-0.6700913897052938,-0.37548220644343366,-2.465583297607361,-2.1662477296318543,-1.286467831895738,-0.06197991751454365,1.179115465711619,2.104267812117311
95,2024-10-27T10:39:34.759029,-0.09843649145406713,-0.474851034404631,-0.7240296261613915,-0.779205064291999,-0.6255931347073247,-0.3043540298873672,-2.4593550202146046,-2.0369723314842045,-1.068784551528065,0.18578318589286877,1.3905704686865334,2.2227555173770748
96,2024-10-27T10:39:35.091489,-0.17614184375339195,-0.5352391193938847,-0.7509195052352414,-0.7653916160680365,-0.5747776614818497,-0.23015249667415105,-2.4282922593538987,-1.887127655914176,-0.8403087210578079,0.43167025699882666,1.5879835382960914,2.3187979129130025
97,2024-10-27T10:39:35.421355,-0.25206852169673005,-0.5902223779336111,-0.7702266246484047,-0.7438492692997084,-0.518158102951675,-0.15362689136609659,-2.3727086857293136,-1.7182268293664489,-0.6033474816613532,0.673198336510253,1.7693612040679594,2.3914251658767
98,2024-10-27T10:39:35.750014,-0.3254498202688757,-0.6392455909464496,-0.7817560217647671,-0.7147955578730477,-0.4563062014958917,-0.07554996692659735,-2.2931655803795494,-1.5319754066512024,-0.36029365988632345,0.9079284820831457,1.932871920493226,2.439903888734349
99,2024-10-27T10:39:36.082554,-0.3955447376090697,-0.6818137236923543,-0.7853912731238162,-0.6785238651793002,-0.389846535514747,0.003289858513054732,-2.190466166881061,-1.3302541483095192,-0.11360160497028347,1.1334903966796093,2.076864561910769,2.4637445449891255
100,2024-10-27T10:39:36.412107,-0.46164545762261394,-0.7174969246125799,-0.7810956700807911,-0.6354004615394077,-0.3194502124581777,0.08209646307317275,-2.065647500423255,-1.1151000287570487,0.1342375950945349,1.3476063637466404,2.19988509551779,2.462706392503686
101,2024-10-27T10:39:36.737471,-0.5230844974837662,-0.7459348659561293,-0.76891258948933,-0.5858608056187413,-0.24582809200556432,0.1600740603373886,-1.9199699956610057,-0.8886856669859208,0.3807212684831595,1.5481142475208216,2.3006912641441652,2.4367999145067434
102,2024-10-27T10:39:37.066014,-0.5792414478546363,-0.7668403823571412,-0.7489650556834769,-0.5304051471802942,-0.1697236078288413,0.23643523517684747,-1.7549046990896888,-0.6532973875316214,0.6233604314329061,1.7329893262014713,2.3782651305225926,2.3862867137330874
103,2024-10-27T10:39:37.393795,-0.6295492377576168,-0.7800023706210044,-0.7214544981821325,-0.46959347557955755,-0.09190526042451633,0.3104088950414473,-1.5721184344681414,-0.4113121332457236,0.8597049219170135,1.9003647375230184,2.431823356385153,2.3116768707687427
104,2024-10-27T10:39:37.721374,-0.67349986083885,-0.7852879214372454,-0.6866587176606155,-0.4040398650110339,-0.013158856821766218,0.38124805642621173,-1.3734569712885365,-0.1651734630075291,1.0873681412974052,2.0485503302663624,2.4608251125859386,2.2137237932738865
105,2024-10-27T10:39:38.056367,-0.7106495051991378,-0.7826436614932327,-0.6449290807288788,-0.3344062736078758,0.06572042447025832,0.4482373878853573,-1.1609263862590082,0.08263312325039569,1.304051154116789,2.1760497313487193,2.464977540375799,2.0934166080983254
106,2024-10-27T10:39:38.388924,-0.7406230349914311,-0.7720962924360754,-0.5966869718434089,-0.2613958590111295,0.14393606314802146,0.5107004334249462,-0.9366728060091644,0.3296052830361673,1.507565902670932,2.2815754561483192,2.444238708680096,1.9519701731121522
107,2024-10-27T10:39:38.721236,-0.763117778529865,-0.7537523212402961,-0.5424195381813053,-0.18574587790777183,0.22069824034855887,0.5680064433325245,-0.7029607355760568,0.5732490998681008,1.6958573019407368,2.3640619094799247,2.398818037516792,1.7908128096118197
108,2024-10-27T10:39:39.050202,-0.777906584658168,-0.7277969847040215,-0.4826747704446258,-0.10822024123771586,0.2952318142135413,0.6195767434663059,-0.46215019150946907,0.8111042667585798,1.867023991771232,2.422676145939247,2.3291741832806983,1.611571879180667
109,2024-10-27T10:39:39.382200,-0.7848401165143234,-0.6944923789340834,-0.4180559692688858,-0.029601800247080857,0.3667841472454368,0.6648905786870026,-0.2166728705048566,1.0407689303105647,2.019337536741874,2.456826280957342,2.2360104072467326,1.4160573506467726
110,2024-10-27T10:39:39.708924,-0.7838483595291283,-0.6541748127084366,-0.34921565311373753,0.049315558717093665,0.43463270641539004,0.7034903714255303,0.03099240578734519,1.2599239445514634,2.1512598798483804,2.4661674676304517,2.120267474061037,1.206243523078988
111,2024-10-27T10:39:40.038458,-0.7749413284309367,-0.607251411441537,-0.27684896915371715,0.127734930844229,0.49809235927721873,0.7349863422857659,0.27834472181848996,1.466356289590609,2.261458873750635,2.4506053789729765,1.9831141519321451,0.9842490893823613
112,2024-10-27T10:39:40.370802,-0.7582089661172722,-0.5541960060457386,-0.2016866737056947,0.20486443997790832,0.5565222924115767,0.7590604460236468,0.5228863223020147,1.6579814186187,2.3488217327506993,2.410297160427477,1.8259354104486847,0.7523157418087768
113,2024-10-27T10:39:40.702976,-0.7338202354145033,-0.4955443482028268,-0.12448775307639473,0.2799252349544211,0.6093324823381078,0.7754695831572477,0.7621478344615282,1.8328643075909927,2.412466269665622,2.345649843016023,1.650318435204095,0.5127855354250285
114,2024-10-27T10:39:41.031134,-0.7020214128969618,-0.4318887003617374,-0.046031759344457086,0.35215935441535307,0.655989653552504,0.78404805477709,0.993713203673168,1.9892389950340421,2.4517498041230494,2.257316233154121,1.4580366004498824,0.268077238120074
115,2024-10-27T10:39:41.361592,-0.6631336019944601,-0.36387185509245956,0.03288906152998126,0.42083738067564486,0.6960226635244409,0.7847092357681041,1.2152440907031772,2.1255264146649298,2.466275652326196,2.1461883206341166,1.2510315616230243,0.02066190596919022
116,2024-10-27T10:39:41.689785,-0.6175494905007592,-0.2921806441884913,0.11147776977808929,0.485265805358607,0.7290272602788479,0.7774464495470979,1.4245034841781516,2.2403503407490053,2.4558971327533743,2.013388271342566,1.0313936485752189,-0.22696206940644637
117,2024-10-27T10:39:42.014737,-0.565729385225569,-0.2175390030627234,0.18894077929305172,0.5447940324199454,0.7546701645186202,0.7623330354826683,1.6193782898496927,2.3325512851802457,2.420719047342574,1.8602570956668223,0.8013407574928848,-0.47229418951342345
118,2024-10-27T10:39:42.343998,-0.5081965638320111,-0.14070066047221697,0.2644958712356345,0.5988209478445302,0.772692435067645,0.7395216083167466,1.7979006685486851,2.4011982059533237,2.36109662320571,1.6883411070182741,0.563195954657022,-0.7128570989350512
119,2024-10-27T10:39:42.673517,-0.44553199079655526,-0.062441527390823745,0.337380092853446,0.6468009896752965,0.7829120836500008,0.7092425170661197,1.9582679073579923,2.445597908793536,2.2776319255566073,1.499376307211446,0.3193640181986185,-0.9462216015820895
120,2024-10-27T10:39:43.007460,-0.37836845084946086,0.01644813811348535,0.4068574617519287,0.6882496570793654,0.7852259126013892,0.6718015189658794,2.0988606233467273,2.465302047009691,2.171167778077613,1.2952708563771678,0.07230715473088939,-1.170031190632527
121,2024-10-27T10:39:43.337575,-0.3073841591360638,0.09517171087774741,0.4722263978195791,0.7227484028209954,0.7796105569556426,0.6275766919432473,2.2182591160436558,2.460111648883187,2.042779252114072,1.0780858044259376,-0.1754798639295797,-1.3820258444572515
122,2024-10-27T10:39:43.665588,-0.23329591262327748,0.17293424293784337,0.5328268077600826,0.7499488597373537,0.7661227203833599,0.5770146167995095,2.315257703524571,2.4300791268779967,1.8937628106407336,0.8500142786361963,-0.4214948928838339,-1.5800648482418043
123,2024-10-27T10:39:43.996457,-0.15685185190815576,0.24895049088605095,0.5880467506920097,0.7695763585382979,0.7448986026001654,0.5206258676522463,2.3888768973475516,2.3755077483814846,1.7256232166227208,0.6133593375295047,-0.6632536807248292,-1.762148410851974
124,2024-10-27T10:39:44.332443,-0.07882390651956363,0.32245284523229584,0.6373286175070448,0.7814327014075364,0.7161525240266085,0.45897985617523984,2.438373293393502,2.2969485733201505,1.5400583379698456,0.3705107146637039,-0.8983149554236534,-1.9264378586564495
125,2024-10-27T10:39:44.664657,-0.00000000000000038473413874435795,0.3926990816987234,0.6801747615878317,0.7853981633974483,0.6801747615878322,0.39269908169872414,2.463247078736349,2.19519488957586,1.3389420025245897,0.12392068718474608,-1.1243050762117572,-2.071274202391114
126,2024-10-27T10:39:44.996683,0.07882390651956286,0.4589798561752392,0.7161525240266081,0.7814327014075365,0.6373286175070454,0.3224528452322966,2.4632470787363494,2.0712742023911157,1.1243050762117606,-0.12392068718474261,-1.3389420025245862,-2.195194889575858
127,2024-10-27T10:39:45.324397,0.15685185190815504,0.5206258676522456,0.7448986026001652,0.7695763585382981,0.5880467506920104,0.24895049088605173,2.438373293393503,1.9264378586564495,0.8983149554236568,-0.3705107146637004,-1.540058337969842,-2.2969485733201505
128,2024-10-27T10:39:45.683600,0.23329591262327676,0.577014616799509,0.7661227203833597,0.7499488597373538,0.5328268077600832,0.17293424293784423,2.3888768973475516,1.762148410851981,0.6632536807248292,-0.6133593375295081,-1.725623216622724,-2.375507748381482
129,2024-10-27T10:39:46.013076,0.3073841591360631,0.6275766919432467,0.7796105569556425,0.7227484028209957,0.47222639781957976,0.09517171087774827,2.315257703524571,1.580064848241801,0.42149489288383735,-0.8500142786361894,-1.8937628106407303,-2.4300791268779967
130,2024-10-27T10:39:46.343457,0.37836845084946014,0.6718015189658788,0.7852259126013892,0.6882496570793657,0.4068574617519295,0.016448138113486215,2.2182591160436558,1.3820258444572515,0.17547986392958317,-1.0780858044259376,-2.042779252114069,-2.460111648883187
131,2024-10-27T10:39:46.674984,0.4455319907965546,0.7092425170661193,0.7829120836500009,0.6468009896752971,0.33738009285344683,-0.062441527390822885,2.0988606233466998,1.170031190632514,-0.0723071547308849,-1.295270856377143,-2.171167778077581,-2.465302047009657
132,2024-10-27T10:39:47.008682,0.5081965638320115,0.7395216083167467,0.7726924350676448,0.5988209478445299,0.26449587123563395,-0.1407006604722175,1.958267907358027,0.9462216015821068,-0.3193640181986254,-1.4993763072114739,-2.2776319255566504,-2.4455979087935793
133,2024-10-27T10:39:47.339676,0.5657293852255695,0.7623330354826684,0.75467016451862,0.544794032419945,0.18894077929305123,-0.2175390030627239,1.7979006685486851,0.7128570989350512,-0.5631959546570255,-1.6883411070182777,-2.3610966232057082,-2.401198205953323
134,2024-10-27T10:39:47.669553,0.6175494905007597,0.777446449547098,0.7290272602788478,0.4852658053586066,0.11147776977808876,-0.2921806441884918,1.6193782898496927,0.47229418951342345,-0.8013407574928813,-1.8602570956668223,-2.420719047342575,-2.3325512851802457
135,2024-10-27T10:39:48.001677,0.6631336019944605,0.7847092357681041,0.6960226635244405,0.4208373806756444,0.03288906152998072,-0.36387185509246006,1.4245034841781483,0.2269620694064429,-1.0313936485752258,-2.013388271342566,-2.4558971327533743,-2.2403503407490053
136,2024-10-27T10:39:48.333872,0.7020214128969622,0.78404805477709,0.6559896535525037,0.35215935441535257,-0.046031759344457614,-0.43188870036173665,1.2152440907031772,-0.02066190596919022,-1.2510315616230243,-2.1461883206341184,-2.4662756523261957,-2.1255264146648916
137,2024-10-27T10:39:48.672339,0.7338202354145035,0.7754695831572476,0.6093324823381073,0.2799252349544207,-0.12448775307639524,-0.49554434820282617,0.9937132036731645,-0.2680772381200775,-1.4580366004498857,-2.2573162331541194,-2.4517498041230485,-1.9892389950340454
138,2024-10-27T10:39:49.006776,0.7582089661172721,0.759060446023647,0.5565222924115774,0.20486443997790915,-0.20168667370569388,-0.554196006045738,0.7621478344615178,-0.512785535425018,-1.65031843520406,-2.345649843015983,-2.41246626966558,-1.8328643075909945
139,2024-10-27T10:39:49.333781,0.7749413284309368,0.7349863422857658,0.4980923592772183,0.12773493084422846,-0.2768489691537189,-0.6072514114415374,0.5228863223020216,-0.7523157418087872,-1.8259354104487193,-2.4102971604275196,-2.348821732750781,-1.6579814186187278
140,2024-10-27T10:39:49.659558,0.7838483595291285,0.7034903714255301,0.43463270641538965,0.049315558717093144,-0.34921565311373925,-0.654174812708437,0.27834472181848996,-0.9842490893823648,-1.9831141519321434,-2.4506053789729765,-2.2614588737506334,-1.4663562895906126
141,2024-10-27T10:39:49.986294,0.7848401165143234,0.6648905786870024,0.36678414724543634,-0.029601800247081384,-0.4180559692688862,-0.694492378934083,0.03099240578734172,-1.206243523078988,-2.120267474061039,-2.4661674676304517,-2.151259879848341,-1.2599239445514356
142,2024-10-27T10:39:50.314127,0.7779065846581679,0.6195767434663055,0.2952318142135408,-0.10822024123771638,-0.48267477044462626,-0.7277969847040212,-0.21667287050486006,-1.416057350646776,-2.2360104072467344,-2.456826280957342,-2.019337536741874,-1.0407689303105683
143,2024-10-27T10:39:50.639240,0.7631177785298647,0.5680064433325241,0.22069824034855834,-0.18574587790777233,-0.5424195381813067,-0.7537523212402963,-0.4621501915094725,-1.611571879180667,-2.329174183280699,-2.422676145939246,-1.867023991771263,-0.8111042667585971
144,2024-10-27T10:39:50.965545,0.7406230349914309,0.5107004334249458,0.14393606314802096,-0.2613958590111313,-0.5966869718434101,-0.7720962924360755,-0.7029607355760568,-1.7908128096118232,-2.398818037516791,-2.3640619094799664,-1.69585730194073,-0.5732490998680972
145,2024-10-27T10:39:51.292349,0.7106495051991387,0.44823738788535916,0.06572042447026057,-0.3344062736078725,-0.6449290807288782,-0.7826436614932326,-0.9366728060091556,-1.9519701731121335,-2.444238708680078,-2.2815754561482233,-1.5075659026709185,-0.32960528303616954
146,2024-10-27T10:39:51.619034,0.6734998608388505,0.3812480564262125,-0.013158856821765354,-0.40403986501103323,-0.6866587176606151,-0.7852879214372454,-1.160926386259006,-2.093416608098331,-2.464977540375808,-2.1760497313487708,-1.3040511541167776,-0.08263312325039802
147,2024-10-27T10:39:51.944667,0.6295492377576173,0.3104088950414481,-0.09190526042451547,-0.46959347557955683,-0.7214544981821321,-0.7800023706210046,-1.3734569712885365,-2.2137237932738865,-2.460825112585939,-2.0485503302663606,-1.0873681412974052,0.16517346300752217
148,2024-10-27T10:39:52.269979,0.5792414478546368,0.2364352351768483,-0.16972360782884044,-0.5304051471802936,-0.7489650556834766,-0.7668403823571417,-1.572118434468138,-2.311676870768741,-2.431823356385153,-1.9003647375230235,-0.8597049219170135,0.41131213324571664
149,2024-10-27T10:39:52.595686,0.5230844974837668,0.16007406033738947,-0.2458280920055622,-0.5858608056187417,-0.7689125894893302,-0.7459348659561296,-1.7549046990896855,-2.3862867137330865,-2.3782651305225526,-1.732989326201499,-0.6233604314329234,0.6532973875316284
150,2024-10-27T10:39:52.923732,0.46164545762261455,0.08209646307317361,-0.3194502124581756,-0.635400461539408,-0.7810956700807912,-0.7174969246125802,-1.9199699956610072,-2.4367999145067434,-2.300691264144168,-1.5481142475208216,-0.380721268483156,0.8886856669859172
151,2024-10-27T10:39:53.249890,0.39554473760907033,0.003289858513055598,-0.3898465355147463,-0.6785238651792997,-0.7853912731238162,-0.6818137236923554,-2.065647500423255,-2.462706392503686,-2.1998850955178315,-1.3476063637466162,-0.13423759509453143,1.1151000287570243
152,2024-10-27T10:39:53.576307,0.3254498202688764,-0.07554996692659648,-0.456306201495891,-0.7147955578730473,-0.7817560217647672,-0.639245590946451,-2.1904661668810577,-2.4637445449891255,-2.076864561910771,-1.1334903966796093,0.11360160497028,1.3302541483095123
153,2024-10-27T10:39:53.902869,0.2520685216967308,-0.15362689136609575,-0.5181581029516733,-0.7438492692997076,-0.7702266246484045,-0.5902223779336117,-2.2931655803795494,-2.4399038887343503,-1.9328719204931948,-0.9079284820831353,0.3602936598863339,1.5319754066512266
154,2024-10-27T10:39:54.226411,0.17614184375339273,-0.23015249667415022,-0.5747776614818482,-0.765391616068036,-0.7509195052352413,-0.5352391193938852,-2.372708685729312,-2.3914251658767,-1.769361204067963,-0.6731983365102598,0.6033474816613498,1.7182268293664489
155,2024-10-27T10:39:54.550842,0.0984364914540679,-0.3043540298873664,-0.6255931347073233,-0.7792050642919988,-0.7240296261613914,-0.4748510344046317,-2.4282922593538987,-2.3187979129130025,-1.587983538296095,-0.4316702569988371,0.8403087210578079,1.8871276559141708
156,2024-10-27T10:39:54.877484,0.019737130807200486,-0.37548220644343416,-0.6700913897052934,-0.7851501262405708,-0.6898285205124939,-0.4096679197971384,-2.4593550202146046,-2.2227555173771165,-1.3905704686865648,-0.1857831858928757,1.0687845515280476,2.0369723314841646
157,2024-10-27T10:39:55.201916,-0.059161534716235135,-0.4428187764311881,-0.7078230846080653,-0.7831667688801055,-0.6486615498918302,-0.34034799244891906,-2.465583297607361,-2.104267812117309,-1.1791154657116225,0.061979917514540184,1.286467831895738,2.1662477296318525
158,2024-10-27T10:39:55.528732,-0.13746278907138437,-0.5056837774538149,-0.7384072060419764,-0.7732750200858687,-0.6009444169705918,-0.2675912426320533,-2.446914198598411,-1.9645312819570846,-0.9557537948097208,0.3091171498199004,1.491160403788701,2.273648431777053
159,2024-10-27T10:39:55.855213,-0.2143759488510859,-0.5634424008660512,-0.7615349165875055,-0.7555747664012351,-0.5471589677364191,-0.19213236553518348,-2.4035362431156706,-1.8049569816323847,-0.7227409545477834,0.5531329276447986,1.6807952885678925,2.35808990927718
160,2024-10-27T10:39:56.181793,-0.28912434758005384,-0.6155114020503112,-0.7769726734090399,-0.7302447443867653,-0.4878483258289855,-0.11473334233645406,-2.335887460280246,-1.6271562870081218,-0.4824299006729485,0.7915631879521795,1.853457559607299,2.4187194749602923
161,2024-10-27T10:39:56.508384,-0.3609531784665705,-0.6613649900010332,-0.7845645865625019,-0.697540735744491,-0.4236114080959308,-0.036175745743456555,-2.2446509652036433,-1.432924623460062,-0.23724728604568984,1.0220002700710709,2.007403679157959,2.45492489353117
162,2024-10-27T10:39:56.842738,-0.4291371164158428,-0.7005401367444012,-0.7842339931667095,-0.6577929844429639,-0.3550968767508659,0.042747152301438746,-2.1307480609147573,-1.224223335730248,0.010331043618513882,1.2421172281727235,2.1410791045332767,2.466340563902976
163,2024-10-27T10:39:57.167181,-0.4929876423381602,-0.7326412529790889,-0.7759842315425453,-0.6114028619248917,-0.2829965892043841,0.12123839105419858,-1.9953289350724182,-1.0031598823339898,0.2578050507551323,1.4496913286897541,2.253133985827554,2.4528512110237424
164,2024-10-27T10:39:57.492913,-0.551859995791289,-0.7573441827235955,-0.7598986075027064,-0.558838814071933,-0.20803861171141633,0.19850536865166407,-1.8397610454102717,-0.7719665545158308,0.5026757512449627,1.6426264954049563,2.34243679665524,2.4145930499207946
165,2024-10-27T10:39:57.819870,-0.6051596857495177,-0.774399476632337,-0.736139553132438,-0.500631630854095,-0.13097986738291897,0.27376784577824353,-1.6656153111946472,-0.5329779346481713,0.7424704490708894,1.8189744755574366,2.40808576026554,2.351952410205606
166,2024-10-27T10:39:58.146536,-0.6523484937538429,-0.7836349109266647,-0.7049469865558525,-0.4373690864306443,-0.05259849280200848,0.34626582449601967,-1.4746502501351588,-0.28860732169774084,0.9747677055182936,1.9769545132328326,2.4494179556534506,2.265561834930502
167,2024-10-27T10:39:58.477900,-0.6929499088236943,-0.7849572265047345,-0.6666358892508579,-0.3696900038266083,0.026314019572837848,0.4152672226781254,-1.2687942209328578,-0.04132236181468223,1.1972217907810803,2.1149713313761227,2.4660160117139456,2.1562936931908014
168,2024-10-27T10:39:58.800919,-0.7265539392486249,-0.7783530706687481,-0.6215931253768961,-0.29827780411956506,0.10496081387173017,0.480075266549182,-1.0501259507790786,0.20637986987457455,1.4075863710613044,2.2316312408451,2.4577123218403827,2.025251370970517
169,2024-10-27T10:39:59.127513,-0.7528212526706838,-0.7638891319600426,-0.5702735352337973,-0.22385360527681222,0.18254771743688794,0.5400355266832293,-0.82085354443934,0.451998084647048,1.6037371919718373,2.325756213836024,2.424590736411178,1.8737581291889769
170,2024-10-27T10:39:59.454073,-0.7714866026510412,-0.7417114667404658,-0.5131953422998796,-0.1471689403306246,0.2582912603511631,0.5945425264098401,-0.5832921868861684,0.6930520381117731,1.7836935291849263,2.396395779568361,2.366985716071097,1.703343741456585
171,2024-10-27T10:39:59.777290,-0.7823615071195192,-0.712044024320195,-0.4509349202288683,-0.06899816842322379,0.3314265868906526,0.6430458558969727,-0.33984076463993884,0.9271075756334636,1.9456381897191029,2.4428366221062734,2.2854789543590432,1.515729046472894
172,2024-10-27T10:40:00.100187,-0.7853361516601358,-0.6751863855252044,-0.384120972648306,0.009869344645563032,0.40121517901183146,0.6850557301707687,-0.09295764189426797,1.1518012123434551,2.0879358618925683,2.464609783399586,2.180893503786838,1.3128085710561235
173,2024-10-27T10:40:00.426861,-0.7803804984133462,-0.6315107375402654,-0.3134281845316882,0.08863719740730756,0.46695231388165953,0.7201479349475742,0.15486416396217464,1.364863999529341,2.2091496286443055,2.4614953988045145,2.0542854646821254,1.0966313992751717
174,2024-10-27T10:40:00.753439,-0.7675445893973294,-0.5814581155753915,-0.2395704092525055,0.1665099947599828,0.5279741801448254,0.7479681103353756,0.4011221567505257,1.5641444364023087,2.3080554774744573,2.433524917271099,1.9069333207239332,0.8693804808687914
175,2024-10-27T10:40:01.079933,-0.7469580411853891,-0.5255339493072689,-0.16329346011712775,0.24270137984068407,0.5836645810682628,0.7682353291479515,0.6433296316231332,1.747630195878829,2.3836546604805524,2.380980783771913,1.740325028857416,0.6333505878929954
176,2024-10-27T10:40:01.406505,-0.7188287360421967,-0.46430295906754127,-0.08536757916735786,0.31644197463051893,0.6334611568748403,0.7807449336980612,0.8790407857247877,1.9134684449915411,2.4351837796803744,2.304393587182401,1.5561429939555882,0.39092514219094
177,2024-10-27T10:40:01.732666,-0.6834407227357422,-0.39838345331608327,-0.006579659302458218,0.38698714910773246,0.6768610634332853,0.7853706024238165,1.1058754158267012,2.0599845547330604,2.462122495778112,2.204536702412921,1.3562470799514068,0.1445521476798535
178,2024-10-27T10:40:02.059478,-0.6411513482225261,-0.32844108498317737,0.07227470173861532,0.4536245404963458,0.7134260499611428,0.7820656254795239,1.3215429535380028,2.1856990104033076,2.4641987825335456,2.0824184808941655,1.1426558289955442,-0.1032805295091455
179,2024-10-27T10:40:02.382566,-0.5923876491701259,-0.2551821297288246,0.1503992352961691,0.515681246681296,0.7427868844662961,0.770863376410121,1.5238655953875047,2.2893423516985223,2.4413916736735537,1.9392720682796916,0.9175260782860418,-0.3500702834188376
180,2024-10-27T10:40:02.709153,-0.5376420397554306,-0.17934635399511875,0.22700504248365125,0.5725306211511343,0.764647082239083,0.7518769751462535,1.7108002942092269,2.3698679916783054,2.3939314746088147,1.776542952182445,0.6831311803995871,-0.5933250394958597
181,2024-10-27T10:40:03.035725,-0.4774673392830087,-0.10169954486984151,0.30131856046181243,0.6235986008532172,0.7787858997448222,0.7252981457230573,1.8804593897631812,2.4264627851649117,2.322297436817535,1.5958743656900884,0.44183804705434954,-0.8305884194748814
182,2024-10-27T10:40:03.362376,-0.4124711898345374,-0.023025777194446848,0.3725893738499947,0.6683695030629141,0.7850605636845329,0.6913952802573596,2.031129670264727,2.458555239856081,2.2272129183806935,1.3990906940530277,0.1960832481159613,-1.0594645458030507
183,2024-10-27T10:40:03.689126,-0.34330992031971097,0.055880503997042065,0.4400977923951436,0.706391232730248,0.7834077127148553,0.6505107287332047,2.161289672338324,2.4658212872340264,2.1096380795359027,1.188179052104182,-0.051651592802424935,-1.2776422351298404
184,2024-10-27T10:40:04.012961,-0.2706819188891937,0.13422250575701605,0.5031621183795517,0.7372798477203548,0.773844037268746,0.6030573419633375,2.269625044703663,2.448187554999185,1.970760187012751,0.9652692184408387,-0.2988648576909174,-1.4829183365583491
185,2024-10-27T10:40:04.339543,-0.19532058063479504,0.21120913321240098,0.5611455303812569,0.7607234358481221,0.7564661110160524,0.54951430263572,2.3550418204499555,2.405832107980777,1.811981625053286,0.7326121289927261,-0.543060195396672,-1.6732199789880455
186,2024-10-27T10:40:04.663210,-0.11798690179074384,0.28606297801381586,0.6134625138751317,0.7764852645568401,0.7314494156658758,0.4904222865430237,2.416677463876598,2.3391826500442128,1.6349057341835864,0.49255714714743726,-0.7817717296930177,-1.8466255028967566
187,2024-10-27T10:40:04.986687,-0.03946179521954894,0.3580281685786924,0.6595847737386795,0.784406171435523,0.6990465689582286,0.4263780028568299,2.4539095803498383,2.24891220515239,1.441320620735867,0.24752833995884244,-1.0125889596139759,-2.0013838651935547
188,2024-10-27T10:40:05.309371,0.039461795219547784,0.42637800285682886,0.699046568958228,0.7844061714355232,0.6595847737386802,0.3580281685786935,2.46636220122177,2.1359323211917625,1.23318110061089,0.000000000000003469446951953611,-1.2331811006108864,-2.1359323211917607
189,2024-10-27T10:40:05.633634,0.1179869017907427,0.4904222865430227,0.7314494156658754,0.7764852645568406,0.6134625138751325,0.286062978013817,2.4539095803498387,2.0013838651935565,1.0125889596139794,-0.24752833995882856,-1.4413206207358635,-2.248912205152388
190,2024-10-27T10:40:05.958530,0.19532058063479393,0.5495143026357191,0.7564661110160521,0.7607234358481216,0.5611455303812578,0.2112091332124022,2.416677463876599,1.8466255028967602,0.7817717296930211,-0.4925571471474685,-1.634905734183583,-2.3391826500442114
191,2024-10-27T10:40:06.284459,0.27068191888919263,0.6030573419633367,0.7738440372687457,0.7372798477203543,0.5031621183795526,0.13422250575701727,2.3550418204499572,1.6732199789880489,0.5430601953966755,-0.7326121289927295,-1.811981625053286,-2.405832107980777
192,2024-10-27T10:40:06.611298,0.34330992031970997,0.650510728733204,0.7834077127148552,0.7063912327302474,0.4400977923951447,0.055880503997043314,2.2696250447036648,1.4829183365583525,0.29886485769092086,-0.9652692184408387,-1.9707601870127458,-2.4481875549991843
193,2024-10-27T10:40:06.939412,0.41247118983453646,0.6913952802573591,0.785060563684533,0.6683695030629133,0.3725893738499958,-0.023025777194445596,2.161289672338326,1.277642235129844,0.051651592802431874,-1.188179052104189,-2.109638079535901,-2.465821287234026
194,2024-10-27T10:40:07.264850,0.47746733928300783,0.7252981457230568,0.7787858997448224,0.6235986008532163,0.3013185604618136,-0.10169954486984026,2.0311296702647286,1.059464545803054,-0.19608324811595784,-1.3990906940530312,-2.2272129183806917,-2.458555239856081
195,2024-10-27T10:40:07.591793,0.5376420397554297,0.7518769751462532,0.7646470822390832,0.5725306211511372,0.22700504248365247,-0.17934635399511753,1.8804593897631812,0.8305884194748848,-0.44183804705434954,-1.5958743656899705,-2.322297436817533,-2.4264627851649125
196,2024-10-27T10:40:07.918427,0.5923876491701251,0.7708633764101209,0.7427868844662966,0.515681246681299,0.15039923529617036,-0.25518212972882337,1.7108002942092302,0.5933250394958666,-0.6831311803995801,-1.7765429521824414,-2.393931474608814,-2.3698679916783054
197,2024-10-27T10:40:08.244536,0.6411513482225254,0.7820656254795237,0.7134260499611433,0.45362454049634904,0.07227470173861657,-0.3284410849831762,1.523865595387508,0.3500702834188376,-0.9175260782860384,-1.9392720682796845,-2.4413916736735537,-2.289342351698524
198,2024-10-27T10:40:08.569401,0.6834407227357415,0.7853706024238165,0.676861063433286,0.3869871491077359,-0.006579659302456967,-0.39838345331608216,1.3215429535380028,0.10328052950914897,-1.1426558289955406,-2.0824184808941584,-2.4641987825335456,-2.1856990104033094
199,2024-10-27T10:40:08.895903,0.7188287360421962,0.7807449336980613,0.633461156874841,0.31644197463052265,-0.08536757916735663,-0.4643029590675402,1.1058754158267081,-0.14455214767985003,-1.3562470799514068,-2.2045367024129123,-2.4621224957781123,-2.059984554733062
200,2024-10-27T10:40:09.220783,0.7469580411853888,0.7682353291479517,0.5836645810682637,0.24270137984068263,-0.16329346011712653,-0.525533949307268,0.8790407857247667,-0.39092514219092567,-1.556142993955538,-2.3043935871824988,-2.4351837796803073,-1.9134684449914932
201,2024-10-27T10:40:09.547162,0.7675445893973297,0.747968110335375,0.5279741801448243,0.1665099947599813,-0.23957040925250697,-0.5814581155753926,0.643329631623154,-0.6333505878930197,-1.7403250288574783,-2.3809807837719146,-2.383654660480637,-1.7476301958788913
202,2024-10-27T10:40:09.871955,0.7803804984133463,0.7201479349475737,0.4669523138816583,0.08863719740730602,-0.3134281845316896,-0.6315107375402663,0.40112215675051877,-0.8693804808687914,-1.9069333207239365,-2.4335249172711,-2.3080554774744546,-1.5641444364023018
203,2024-10-27T10:40:10.199490,0.7853361516601358,0.685055730170768,0.4012151790118301,0.009869344645561494,-0.38412097264830736,-0.6751863855252052,0.15486416396217118,-1.096631399275175,-2.054285464682129,-2.4614953988045145,-2.2091496286443038,-1.3648639995293375
204,2024-10-27T10:40:10.526243,0.7823615071195192,0.6430458558969734,0.3314265868906537,-0.06899816842321976,-0.4509349202288672,-0.7120440243201945,-0.09295764189426797,-1.3128085710560817,-2.180893503786762,-2.4646097833994123,-2.0879358618924937,-1.1518012123434171
205,2024-10-27T10:40:10.848737,0.771486602651041,0.594542526409839,0.2582912603511617,-0.14716894033062614,-0.5131953422998808,-0.7417114667404664,-0.3398407646399458,-1.5157290464729496,-2.285478954359123,-2.442836622106447,-1.945638189719174,-0.9271075756334949
206,2024-10-27T10:40:11.173737,0.7528212526706833,0.5400355266832282,0.18254771743688644,-0.22385360527681372,-0.5702735352337983,-0.7638891319600429,-0.5832921868861753,-1.703343741456585,-2.366985716071099,-2.39639577956836,-1.7836935291849194,-0.6930520381117662
207,2024-10-27T10:40:11.500224,0.7265539392486243,0.48007526654918076,0.10496081387172865,-0.2982778041195665,-0.6215931253768971,-0.7783530706687483,-0.8208535444393434,-1.8737581291889804,-2.424590736411179,-2.3257562138360224,-1.6037371919718373,-0.45199808464704105
208,2024-10-27T10:40:11.826883,0.6929499088236936,0.41526722267812405,0.026314019572836307,-0.3696900038266097,-0.6666358892508587,-0.7849572265047347,-1.0501259507790854,-2.0252513709705204,-2.4577123218403836,-2.2316312408450982,-1.4075863710612972,-0.20637986987457455
209,2024-10-27T10:40:12.149673,0.6523484937538434,0.34626582449602084,-0.052598492802007235,-0.43736908643064554,-0.7049469865558521,-0.7836349109266648,-1.2687942209328515,-2.1562936931907832,-2.466016011713927,-2.1149713313761764,-1.1972217907810754,0.04132236181468338
210,2024-10-27T10:40:12.476236,0.6051596857495185,0.27376784577824476,-0.13097986738291773,-0.5006316308540919,-0.7361395531324375,-0.7743994766323372,-1.4746502501351517,-2.2655618349305007,-2.4494179556534506,-1.976954513232697,-0.9747677055182936,0.2886073216977374
211,2024-10-27T10:40:12.802967,0.5518599957912899,0.1985053686516653,-0.20803861171141516,-0.5588388140719301,-0.7598986075027061,-0.7573441827235958,-1.6656153111946437,-2.351952410205606,-2.4080857602655428,-1.8189744755574435,-0.742470449070893,0.5329779346481679
212,2024-10-27T10:40:13.129534,0.4929876423381611,0.1212383910541998,-0.28299658920438286,-0.6114028619248891,-0.775984231542545,-0.7326412529790893,-1.8397610454102717,-2.4145930499207946,-2.342436796655239,-1.6426264954049667,-0.5026757512449661,0.7719665545158273
213,2024-10-27T10:40:13.453249,0.4291371164158438,0.04274715230144,-0.3550968767508648,-0.6577929844429616,-0.7842339931667095,-0.7005401367444017,-1.9953289350724146,-2.452851211023741,-2.253133985827559,-1.4496913286897646,-0.25780505075513926,1.0031598823339862
214,2024-10-27T10:40:13.776948,0.36095317846657154,-0.036175745743455306,-0.42361140809592973,-0.6975407357444893,-0.7845645865625019,-0.6613649900010339,-2.1307480609147555,-2.466340563902976,-2.1410791045332767,-1.2421172281727375,-0.010331043618513882,1.2242233357302446
215,2024-10-27T10:40:14.103527,0.28912434758005495,-0.11473334233645283,-0.4878483258289846,-0.730244744386766,-0.7769726734090401,-0.6155114020503119,-2.2446509652036415,-2.4549248935311705,-2.007403679157962,-1.0220002700711472,0.2372472860456829,1.432924623460062
216,2024-10-27T10:40:14.430149,0.21437594885108704,-0.19213236553518226,-0.5471589677364184,-0.7555747664012354,-0.7615349165875058,-0.5634424008660521,-2.335887460280245,-2.4187194749602927,-1.8534575596073044,-0.7915631879521691,0.482429900672945,1.6271562870081149
217,2024-10-27T10:40:14.752240,0.13746278907138554,-0.26759124263205214,-0.600944416970591,-0.7732750200858689,-0.7384072060419768,-0.5056837774538158,-2.40353624311567,-2.3580899092771817,-1.6807952885678925,-0.5531329276447952,0.72274095454778,1.8049569816323847
218,2024-10-27T10:40:15.078814,0.0591615347162349,-0.3403479924489179,-0.6486615498918296,-0.7831667688801056,-0.7078230846080645,-0.4428187764311868,-2.4469141985984555,-2.273648431777053,-1.4911604037887043,-0.3091171498198969,0.955753794809759,1.964531281957154
219,2024-10-27T10:40:15.400334,-0.01973713080719794,-0.4096679197971349,-0.6898285205124919,-0.7851501262405709,-0.6700913897052939,-0.3754822064434353,-2.465583297607274,-2.1662477296317797,-1.2864678318956966,-0.061979917514540184,1.1791154657115808,2.1042678121172327
220,2024-10-27T10:40:15.726990,-0.09843649145406674,-0.4748510344046308,-0.7240296261613909,-0.7792050642919992,-0.625593134707324,-0.30435402988736754,-2.459355020214648,-2.036972331484244,-1.0687845515280927,0.1857831858928653,1.3905704686865579,2.2227555173771147
221,2024-10-27T10:40:16.052952,-0.1761418437533916,-0.5352391193938845,-0.750919505235241,-0.7653916160680369,-0.574777661481849,-0.23015249667415144,-2.428292259353899,-1.887127655914176,-0.8403087210578148,0.4316702569988232,1.587983538296095,2.318797912913001
222,2024-10-27T10:40:16.378621,-0.25206852169672966,-0.5902223779336108,-0.7702266246484043,-0.7438492692997088,-0.5181581029516741,-0.15362689136609697,-2.3727086857293127,-1.7182268293664453,-0.6033474816613532,0.6731983365102495,1.769361204067963,2.3914251658767
223,2024-10-27T10:40:16.701644,-0.32544982026887664,-0.6392455909464502,-0.781756021764767,-0.7147955578730477,-0.4563062014958898,-0.07554996692659634,-2.293165580379591,-1.53197540665123,-0.3602936598863339,0.9079284820831596,1.9328719204932572,2.439903888734393
224,2024-10-27T10:40:17.028137,-0.39554473760906816,-0.6818137236923534,-0.7853912731238162,-0.6785238651793004,-0.38984653551474735,0.0032898585130529522,-2.190466166880983,-1.330254148309474,-0.11360160497028694,1.1334903966796022,2.0768645619107,2.463744544989038
225,2024-10-27T10:40:17.354668,-0.46164545762261366,-0.7174969246125796,-0.7810956700807913,-0.635400461539407,-0.3194502124581768,0.08209646307317237,-2.065647500423295,-1.1151000287570694,0.13423759509452796,1.3476063637466682,2.1998850955178284,2.4627063925037294
226,2024-10-27T10:40:17.677429,-0.5230844974837661,-0.7459348659561292,-0.7689125894893303,-0.5858608056187407,-0.24582809200556335,0.16007406033738825,-1.9199699956610108,-0.8886856669859242,0.380721268483156,1.5481142475208216,2.300691264144168,2.4367999145067443
227,2024-10-27T10:40:18.004004,-0.5792414478546369,-0.7668403823571415,-0.7489650556834769,-0.5304051471802925,-0.16972360782883894,0.23643523517684845,-1.7549046990897132,-0.6532973875316318,0.6233604314329165,1.7329893262015026,2.3782651305226357,2.386286713733129
228,2024-10-27T10:40:18.330551,-0.6295492377576174,-0.7800023706210045,-0.7214544981821327,-0.4695934755795556,-0.09190526042451394,0.31040889504144825,-1.572118434468138,-0.41131213324572014,0.8597049219170065,1.900364737523027,2.431823356385154,2.311676870768742
229,2024-10-27T10:40:18.655132,-0.6734998608388492,-0.7852879214372452,-0.686658717660617,-0.4040398650110366,-0.013158856821766604,0.3812480564262102,-1.3734569712884914,-0.16517346300752217,1.0873681412973635,2.0485503302662167,2.460825112585852,2.2137237932738083
230,2024-10-27T10:40:18.981591,-0.7106495051991383,-0.7826436614932326,-0.6449290807288789,-0.33440627360787617,0.06572042447026072,0.4482373878853581,-1.1609263862590338,0.08263312325039456,1.3040511541168158,2.176049731348762,2.464977540375852,2.0934166080983707
231,2024-10-27T10:40:19.304914,-0.7406230349914315,-0.7720962924360751,-0.5966869718434091,-0.2613958590111298,0.14393606314802382,0.5107004334249469,-0.9366728060091609,0.32960528303617076,1.5075659026709287,2.281575456148321,2.4442387086800945,1.951970173112147
232,2024-10-27T10:40:19.631483,-0.7631177785298652,-0.7537523212402959,-0.5424195381813055,-0.18574587790777222,0.22069824034856117,0.5680064433325253,-0.7029607355760533,0.5732490998681008,1.6958573019407368,2.364061909479923,2.39881803751679,1.7908128096118232
233,2024-10-27T10:40:19.957903,-0.777906584658168,-0.7277969847040218,-0.4826747704446272,-0.10822024123771486,0.2952318142135422,0.6195767434663056,-0.4621501915094621,0.811104266758566,1.8670239917711955,2.4226761459392905,2.3291741832806556,1.6115718791806357
234,2024-10-27T10:40:20.284459,-0.7848401165143234,-0.6944923789340837,-0.4180559692688874,-0.029601800247079847,0.3667841472454377,0.6648905786870025,-0.2166728705048566,1.0407689303105647,2.0193375367418676,2.456826280957342,2.236010407246731,1.416057350646776
235,2024-10-27T10:40:20.609610,-0.7838483595291283,-0.6541748127084361,-0.34921565311373787,0.049315558717096065,0.4346327064153921,0.7034903714255307,0.03099240578734519,1.259923944551484,2.1512598798484204,2.466167467630495,2.1202674740610736,1.2062435230790054
236,2024-10-27T10:40:20.931936,-0.7749413284309365,-0.6072514114415364,-0.2768489691537175,0.12773493084423135,0.49809235927722056,0.7349863422857662,0.27834472181849346,1.4663562895906161,2.261458873750635,2.4506053789729756,1.983114151932138,0.9842490893823578
237,2024-10-27T10:40:21.258742,-0.7582089661172716,-0.5541960060457368,-0.20168667370569374,0.20486443997791198,0.5565222924115795,0.7590604460236473,0.5228863223020286,1.6579814186187347,2.34882173275074,2.410297160427518,1.825935410448714,0.7523157418087838
238,2024-10-27T10:40:21.585444,-0.7338202354145034,-0.4955443482028271,-0.12448775307639649,0.2799252349544195,0.6093324823381084,0.7754695831572476,0.7621478344615074,1.8328643075909268,2.412466269665537,2.3456498430158583,1.650318435204029,0.5127855354250077
239,2024-10-27T10:40:21.909044,-0.7020214128969621,-0.4318887003617377,-0.04603175934445886,0.35215935441535146,0.6559896535525046,0.78404805477709,0.9937132036731645,1.9892389950340421,2.4517498041230485,2.257316233154121,1.4580366004498788,0.2680772381200775
240,2024-10-27T10:40:22.235135,-0.6631336019944613,-0.36387185509246117,0.03288906152997808,0.4208373806756446,0.6960226635244406,0.7847092357681041,1.2152440907031832,2.125526414664949,2.4662756523262206,2.146188320634218,1.2510315616230347,0.02066190596919079
241,2024-10-27T10:40:22.559991,-0.6175494905007604,-0.292180644188493,0.11147776977808614,0.48526580535860675,0.7290272602788478,0.7774464495470981,1.4245034841781516,2.2403503407490035,2.455897132753375,2.013388271342566,1.0313936485752224,-0.22696206940643943
242,2024-10-27T10:40:22.882017,-0.5657293852255694,-0.21753900306272375,0.18894077929305,0.5447940324199462,0.7546701645186205,0.7623330354826684,1.6193782898497169,2.3325512851802865,2.4207190473426183,1.8602570956668554,0.8013407574928951,-0.47229418951342694
243,2024-10-27T10:40:23.209126,-0.5081965638320113,-0.14070066047221735,0.2644958712356328,0.5988209478445309,0.7726924350676452,0.7395216083167467,1.7979006685486887,2.401198205953323,2.36109662320571,1.6883411070182706,0.563195954657022,-0.7128570989350512
244,2024-10-27T10:40:23.535932,-0.44553199079655664,-0.06244152739082552,0.33738009285344317,0.6468009896752946,0.7829120836500008,0.7092425170661204,1.9582679073579559,2.4455979087934927,2.2776319255565727,1.4993763072113664,0.31936401819861154,-0.946221601582072
245,2024-10-27T10:40:23.862530,-0.3783684508494612,0.016448138113484966,0.4068574617519273,0.6882496570793645,0.7852259126013892,0.6718015189658796,2.098860623346731,2.4653020470097005,2.1711677780776264,1.2952708563771809,0.07230715473088838,-1.1700311906325245
246,2024-10-27T10:40:24.185828,-0.30738415913606415,0.09517171087774702,0.47222639781957765,0.7227484028209947,0.7796105569556425,0.6275766919432475,2.2182591160436558,2.460111648883187,2.042779252114072,1.0780858044259445,-0.17547986392958317,-1.3820258444572515
247,2024-10-27T10:40:24.511377,-0.23329591262327648,0.17293424293784435,0.5328268077600824,0.7499488597373535,0.7661227203833594,0.5770146167995088,2.3152577035246127,2.4300791268780393,1.8937628106407718,0.8500142786362102,-0.4214948928838478,-1.580064848241832
248,2024-10-27T10:40:24.837201,-0.1568518519081575,0.24895049088604923,0.5880467506920076,0.7695763585382978,0.7448986026001656,0.5206258676522475,2.388876897347466,2.3755077483814007,1.7256232166226617,0.6133593375295081,-0.6632536807248048,-1.762148410851915
249,2024-10-27T10:40:25.163802,-0.07882390651956402,0.3224528452322955,0.6373286175070438,0.7814327014075365,0.716152524026608,0.4589798561752401,2.4383732933935445,2.296948573320194,1.5400583379698802,0.3705107146637108,-0.8983149554236741,-1.9264378586564788
250,2024-10-27T10:40:25.488429,-0.0000000000000007694682774887159,0.39269908169872303,0.6801747615878309,0.7853981633974483,0.6801747615878316,0.3926990816987245,2.4632470787363494,2.195194889575858,1.338942002524593,0.12392068718474261,-1.1243050762117606,-2.071274202391112
251,2024-10-27T10:40:25.815105,0.07882390651956248,0.4589798561752388,0.7161525240266073,0.7814327014075364,0.6373286175070447,0.322452845232297,2.463247078736349,2.0712742023911157,1.1243050762117641,-0.12392068718474608,-1.3389420025245897,-2.1951948895758564
252,2024-10-27T10:40:26.141972,0.156851851908156,0.5206258676522463,0.744898602600165,0.7695763585382976,0.5880467506920087,0.24895049088605076,2.438373293393546,1.9264378586564823,0.8983149554236777,-0.3705107146637108,-1.5400583379698733,-2.296948573320193
253,2024-10-27T10:40:26.465376,0.23329591262327506,0.5770146167995078,0.766122720383359,0.7499488597373548,0.5328268077600836,0.17293424293784596,2.3888768973474686,1.7621484108519219,0.6632536807248118,-0.613359337529463,-1.7256232166226584,-2.375507748381398
254,2024-10-27T10:40:26.787300,0.30738415913606276,0.6275766919432466,0.7796105569556423,0.7227484028209964,0.472226397819579,0.09517171087774864,2.3152577035246136,1.5800648482418356,0.4214948928838512,-0.8500142786361998,-1.8937628106407682,-2.430079126878039
255,2024-10-27T10:40:27.113954,0.37836845084945986,0.6718015189658787,0.7852259126013892,0.6882496570793666,0.40685746175192866,0.016448138113486603,2.218259116043657,1.3820258444572515,0.1754798639295901,-1.0780858044259307,-2.042779252114071,-2.4601116488831862
256,2024-10-27T10:40:27.440709,0.4455319907965554,0.7092425170661197,0.782912083650001,0.6468009896752972,0.3373800928534446,-0.0624415273908239,2.0988606233467344,1.1700311906325316,-0.07230715473088144,-1.295270856377167,-2.1711677780776246,-2.4653020470097013
257,2024-10-27T10:40:27.767166,0.5081965638320102,0.7395216083167462,0.7726924350676455,0.5988209478445301,0.2644958712356343,-0.14070066047221574,1.9582679073579592,0.9462216015820756,-0.31936401819860805,-1.4993763072114703,-2.277631925556571,-2.445597908793493
258,2024-10-27T10:40:28.093723,0.5657293852255681,0.762333035482668,0.754670164518621,0.5447940324199454,0.1889407792930516,-0.21753900306272217,1.7979006685486851,0.7128570989350548,-0.5631959546570151,-1.6883411070182706,-2.3610966232057073,-2.4011982059533237
259,2024-10-27T10:40:28.420334,0.6175494905007594,0.7774464495470979,0.7290272602788483,0.4852658053586058,0.11147776977808777,-0.29218064418849143,1.6193782898497238,0.4722941895134339,-0.8013407574928951,-1.8602570956668605,-2.4207190473426174,-2.3325512851802874
260,2024-10-27T10:40:28.746489,0.6631336019944604,0.7847092357681041,0.6960226635244413,0.42083738067564364,0.03288906152997971,-0.36387185509245973,1.4245034841781552,0.22696206940644637,-1.0313936485752189,-2.013388271342566,-2.4558971327533747,-2.240350340749007
261,2024-10-27T10:40:29.070129,0.7020214128969626,0.7840480547770899,0.6559896535525039,0.35215935441535046,-0.046031759344460015,-0.43188870036173865,1.2152440907031947,-0.02066190596919369,-1.2510315616230419,-2.14618832063416,-2.466275652326239,-2.1255264146649644
262,2024-10-27T10:40:29.396808,0.7338202354145029,0.7754695831572478,0.6093324823381094,0.2799252349544236,-0.12448775307639488,-0.4955443482028258,0.9937132036731333,-0.26807723812006706,-1.4580366004498269,-2.257316233153962,-2.451749804122963,-1.9892389950339708
263,2024-10-27T10:40:29.722940,0.758208966117272,0.7590604460236471,0.5565222924115786,0.20486443997791084,-0.20168667370569487,-0.5541960060457377,0.7621478344615317,-0.5127855354250216,-1.6503184352040878,-2.345649843016022,-2.4124662696656225,-1.8328643075909963
264,2024-10-27T10:40:30.049831,0.7749413284309368,0.7349863422857659,0.4980923592772197,0.1277349308442302,-0.2768489691537186,-0.6072514114415372,0.522886322302025,-0.7523157418087872,-1.825935410448714,-2.410297160427518,-2.3488217327507392,-1.6579814186187314
265,2024-10-27T10:40:30.376617,0.7838483595291285,0.7034903714255303,0.4346327064153911,0.04931555871709492,-0.3492156531137389,-0.6541748127084367,0.27834472181848996,-0.9842490893823613,-1.9831141519321416,-2.4506053789729756,-2.2614588737506334,-1.466356289590609
266,2024-10-27T10:40:30.703402,0.7848401165143234,0.6648905786870019,0.3667841472454367,-0.029601800247081003,-0.41805596926888833,-0.6944923789340841,0.03099240578734172,-1.2062435230790123,-2.1202674740610736,-2.4661674676304957,-2.151259879848417,-1.2599239445514807
267,2024-10-27T10:40:31.027086,0.7779065846581681,0.6195767434663066,0.2952318142135438,-0.10822024123771601,-0.482674770444626,-0.7277969847040212,-0.21667287050485312,-1.416057350646724,-2.2360104072466513,-2.456826280957342,-2.0193375367417996,-1.0407689303105334
268,2024-10-27T10:40:31.353741,0.7631177785298648,0.5680064433325244,0.22069824034856006,-0.18574587790777333,-0.5424195381813064,-0.7537523212402962,-0.462150191509476,-1.6115718791806948,-2.329174183280739,-2.422676145939289,-1.8670239917712612,-0.8111042667585937
269,2024-10-27T10:40:31.680393,0.7406230349914311,0.510700433424946,0.14393606314802268,-0.26139585901113094,-0.5966869718434098,-0.7720962924360755,-0.7029607355760533,-1.7908128096118232,-2.398818037516791,-2.364061909479923,-1.69585730194073,-0.5732490998681008
270,2024-10-27T10:40:32.007001,0.7106495051991377,0.44823738788535716,0.06572042447025955,-0.33440627360787717,-0.6449290807288797,-0.7826436614932327,-0.9366728060091678,-1.9519701731121486,-2.4442387086800954,-2.281575456148318,-1.507565902670932,-0.3296052830361638
271,2024-10-27T10:40:32.332253,0.6734998608388499,0.38124805642621157,-0.013158856821764969,-0.40403986501103284,-0.6866587176606163,-0.7852879214372452,-1.160926386258992,-2.093416608098298,-2.4649775403757643,-2.1760497313486127,-1.3040511541167674,-0.08263312325039109
272,2024-10-27T10:40:32.658906,0.6295492377576167,0.3104088950414472,-0.09190526042451508,-0.4695934755795566,-0.7214544981821331,-0.7800023706210044,-1.3734569712885365,-2.2137237932738847,-2.4608251125859386,-2.048550330266366,-1.0873681412974017,0.16517346300752564
273,2024-10-27T10:40:32.985448,0.579241447854636,0.23643523517684734,-0.16972360782884008,-0.5304051471802933,-0.7489650556834774,-0.7668403823571411,-1.572118434468145,-2.3116768707687436,-2.431823356385154,-1.90036473752302,-0.8597049219170065,0.4113121332457271
274,2024-10-27T10:40:33.309494,0.5230844974837651,0.1600740603373871,-0.24582809200556444,-0.5858608056187414,-0.7689125894893306,-0.7459348659561289,-1.7549046990897166,-2.38628671373313,-2.378265130522634,-1.7329893262015026,-0.6233604314329131,0.6532973875316318
275,2024-10-27T10:40:33.631595,0.4616454576226126,0.08209646307317123,-0.31945021245817784,-0.6354004615394078,-0.7810956700807914,-0.7174969246125792,-1.9199699956610126,-2.4367999145067443,-2.300691264144167,-1.5481142475208216,-0.3807212684831491,0.8886856669859277
276,2024-10-27T10:40:33.954296,0.3955447376090695,0.0032898585130545876,-0.3898465355147459,-0.678523865179301,-0.7853912731238162,-0.6818137236923542,-2.0656475004232204,-2.4627063925036428,-2.1998850955177502,-1.3476063637466613,-0.1342375950945245,1.1151000287570314
277,2024-10-27T10:40:34.280101,0.32544982026887553,-0.0755499669265975,-0.45630620149589074,-0.7147955578730483,-0.7817560217647669,-0.6392455909464495,-2.1904661668810594,-2.463744544989126,-2.0768645619107744,-1.1334903966796022,0.11360160497029041,1.3302541483095192
278,2024-10-27T10:40:34.606730,0.2520685216967285,-0.1536268913660981,-0.518158102951675,-0.7438492692997093,-0.7702266246484041,-0.59022237793361,-2.293165580379593,-2.439903888734392,-1.9328719204932554,-0.9079284820831561,0.3602936598863373,1.5319754066512334
279,2024-10-27T10:40:34.933341,0.17614184375339037,-0.23015249667415255,-0.5747776614818498,-0.7653916160680371,-0.7509195052352405,-0.5352391193938836,-2.3727086857293145,-2.391425165876699,-1.769361204067963,-0.6731983365102425,0.6033474816613602,1.7182268293664489
280,2024-10-27T10:40:35.259479,0.0984364914540655,-0.3043540298873686,-0.6255931347073247,-0.7792050642919993,-0.7240296261613904,-0.4748510344046298,-2.4282922593539,-2.3187979129129994,-1.587983538296088,-0.4316702569988197,0.8403087210578148,1.8871276559141796
281,2024-10-27T10:40:35.586242,0.01973713080719948,-0.37548220644343383,-0.670091389705293,-0.7851501262405708,-0.6898285205124927,-0.4096679197971363,-2.4593550202145606,-2.2227555173770366,-1.3905704686865092,-0.18578318589285836,1.0687845515280545,2.0369723314841695
282,2024-10-27T10:40:35.912718,-0.05916153471623614,-0.4428187764311878,-0.7078230846080651,-0.7831667688801055,-0.6486615498918289,-0.34034799244891684,-2.465583297607361,-2.104267812117309,-1.1791154657116258,0.061979917514540184,1.2864678318957417,2.166247729631856
283,2024-10-27T10:40:36.236592,-0.13746278907138676,-0.5056837774538167,-0.7384072060419772,-0.7732750200858688,-0.6009444169705902,-0.26759124263205103,-2.4469141985984546,-1.9645312819571505,-0.9557537948097521,0.3091171498198969,1.4911604037887078,2.2736484317770542
284,2024-10-27T10:40:36.563300,-0.2143759488510882,-0.5634424008660529,-0.761534916587506,-0.7555747664012352,-0.5471589677364175,-0.19213236553518115,-2.4035362431156684,-1.8049569816323814,-0.7227409545477764,0.5531329276447986,1.680795288567896,2.3580899092771817
285,2024-10-27T10:40:36.889970,-0.2891243475800535,-0.615511402050311,-0.7769726734090399,-0.7302447443867656,-0.48784832582898585,-0.11473334233645444,-2.3358874602801634,-1.627156287008063,-0.4824299006729311,0.7915631879521761,1.8534575596072367,2.4187194749602074
286,2024-10-27T10:40:37.216960,-0.3609531784665726,-0.6613649900010345,-0.784564586562502,-0.6975407357444887,-0.4236114080959287,-0.036175745743454155,-2.2446509652037197,-1.4329246234601107,-0.2372472860456933,1.0220002700711506,2.0074036791580347,2.4549248935312566
287,2024-10-27T10:40:37.541693,-0.42913711641584484,-0.7005401367444023,-0.7842339931667094,-0.657792984442961,-0.35509687675086377,0.042747152301441146,-2.1307480609147555,-1.224223335730241,0.010331043618520821,1.2421172281727408,2.1410791045332767,2.466340563902976
288,2024-10-27T10:40:37.868290,-0.49298764233816206,-0.7326412529790897,-0.7759842315425448,-0.6114028619248885,-0.2829965892043818,0.12123839105420095,-1.9953289350724113,-1.0031598823339793,0.25780505075514276,1.4496913286897646,2.253133985827559,2.4528512110237415
289,2024-10-27T10:40:38.192126,-0.5518599957912868,-0.7573441827235947,-0.7598986075027072,-0.5588388140719333,-0.20803861171141944,0.198505368651661,-1.839761045410247,-0.7719665545158251,0.5026757512449525,1.64262649540494,2.342436796655202,2.414593049920758
290,2024-10-27T10:40:38.518451,-0.6051596857495157,-0.7743994766323365,-0.7361395531324391,-0.5006316308540953,-0.13097986738292208,0.2737678457782406,-1.6656153111946541,-0.5329779346481818,0.7424704490708791,1.818974475557433,2.40808576026554,2.3519524102056106
291,2024-10-27T10:40:38.845070,-0.6523484937538426,-0.7836349109266647,-0.7049469865558528,-0.4373690864306446,-0.05259849280200887,0.34626582449601934,-1.4746502501352143,-0.2886073216977547,0.9747677055183214,1.976954513232834,2.449417955653536,2.2655618349305837
292,2024-10-27T10:40:39.167519,-0.6929499088236928,-0.7849572265047348,-0.6666358892508596,-0.3696900038266136,0.026314019572834677,0.41526722267812266,-1.2687942209328162,-0.04132236181468917,1.1972217907810352,2.114971331375967,2.4660160117138585,2.156293693190727
293,2024-10-27T10:40:39.494161,-0.7265539392486237,-0.7783530706687485,-0.6215931253768981,-0.2982778041195706,0.10496081387172704,0.48007526654917726,-1.050125950779089,0.20637986987457108,1.407586371061294,2.2316312408450916,2.457712321840384,2.0252513709704543
294,2024-10-27T10:40:39.816741,-0.7528212526706829,-0.7638891319600434,-0.5702735352337994,-0.22385360527681794,0.18254771743688483,0.540035526683225,-0.8208535444393503,0.4519980846470341,1.6037371919718337,2.325756213836019,2.424590736411179,1.873758129188989
295,2024-10-27T10:40:40.143160,-0.7714866026510405,-0.741711466740467,-0.5131953422998821,-0.14716894033063047,0.2582912603511601,0.5945425264098361,-0.5832921868861753,0.6930520381117626,1.7836935291849159,2.3963957795683566,2.3669857160711008,1.7033437414565955
296,2024-10-27T10:40:40.466529,-0.7823615071195192,-0.7120440243201951,-0.4509349202288685,-0.06899816842322418,0.3314265868906522,0.6430458558969708,-0.33984076463995966,0.9271075756334949,1.9456381897191721,2.4428366221064444,2.285478954359125,1.51572904647296
297,2024-10-27T10:40:40.793197,-0.7853361516601358,-0.6751863855252059,-0.38412097264830874,0.009869344645562649,0.40121517901182874,0.6850557301707672,-0.09295764189426797,1.15180121234341,2.0879358618924906,2.464609783399586,2.1808935037867654,1.312808571056134
298,2024-10-27T10:40:41.115391,-0.7803804984133466,-0.6315107375402673,-0.31342818453169113,0.08863719740730718,0.46695231388165476,0.720147934947573,0.15486416396216424,1.3648639995293306,2.2091496286442984,2.4614953988045145,2.0542854646820614,1.0966313992751822
299,2024-10-27T10:40:41.442141,-0.7675445893973301,-0.5814581155753936,-0.23957040925250855,0.16650999475998243,0.527974180144821,0.7479681103353746,0.40112215675051527,1.5641444364023018,2.3080554774744537,2.4335249172710998,1.9069333207239436,0.8693804808687984
300,2024-10-27T10:40:41.767908,-0.7469580411853892,-0.5255339493072693,-0.16329346011712814,0.24270137984068374,0.5836645810682608,0.7682353291479513,0.6433296316231506,1.7476301958788845,2.383654660480636,2.3809807837719137,1.740325028857492,0.6333505878930231
301,2024-10-27T10:40:42.093604,-0.7188287360421968,-0.4643029590675416,-0.08536757916735825,0.3164419746305186,0.6334611568748401,0.7807449336980609,0.8790407857247633,1.9134684449914878,2.435183779680307,2.304393587182337,1.5561429939556004,0.39092514219092217
302,2024-10-27T10:40:42.415970,-0.6834407227357423,-0.3983834533160836,-0.006579659302458602,0.3869871491077321,0.6768610634332851,0.7853706024238165,1.1058754158267012,2.0599845547330604,2.462122495778112,2.2045367024129194,1.3562470799514068,0.1445521476798639
303,2024-10-27T10:40:42.742694,-0.6411513482225264,-0.3284410849831777,0.07227470173861493,0.4536245404963455,0.7134260499611426,0.7820656254795242,1.321542953537996,2.1856990104033076,2.4641987825335456,2.0824184808941673,1.1426558289955442,-0.10328052950913509
304,2024-10-27T10:40:43.066435,-0.5923876491701261,-0.2551821297288249,0.15039923529616872,0.5156812466812957,0.7427868844662961,0.7708633764101217,1.523865595387508,2.2893423516985223,2.4413916736735537,1.9392720682796916,0.9175260782860488,-0.35007028341882723
305,2024-10-27T10:40:43.389134,-0.5376420397554309,-0.1793463539951191,0.22700504248365092,0.5725306211511341,0.7646470822390828,0.7518769751462544,1.7108002942092233,2.3698679916783045,2.3939314746088165,1.7765429521824483,0.6831311803995835,-0.5933250394958527
306,2024-10-27T10:40:43.713846,-0.47746733928300905,-0.10169954486984187,0.3013185604618121,0.623598600853217,0.7787858997448217,0.7252981457230574,1.8804593897631812,2.4264627851649117,2.322297436817535,1.595874365690092,0.44183804705433916,-0.8305884194749056
307,2024-10-27T10:40:44.037023,-0.41247118983453773,-0.023025777194447233,0.37258937384999435,0.668369503062914,0.7850605636845328,0.6913952802573599,2.031129670264727,2.45855523985608,2.2272129183806935,1.3990906940530277,0.19608324811597172,-1.0594645458030472
308,2024-10-27T10:40:44.359844,-0.34330992031971136,0.05588050399704168,0.4400977923951433,0.7063912327302477,0.7834077127148555,0.6505107287332048,2.1612896723383224,2.4658212872340264,2.1096380795359027,1.1881790521041786,-0.05165159280241453,-1.277642235129844
309,2024-10-27T10:40:44.682423,-0.270681918889194,0.13422250575701566,0.5031621183795514,0.7372798477203546,0.7738440372687465,0.6030573419633378,2.2696250447036648,2.4481875549991847,1.970760187012751,0.9652692184408387,-0.298864857690907,-1.482918336558342
310,2024-10-27T10:40:45.009286,-0.19532058063479546,0.21120913321240062,0.5611455303812566,0.760723435848122,0.7564661110160533,0.5495143026357202,2.355041820449953,2.405832107980778,1.811981625053286,0.7326121289927295,-0.5430601953966616,-1.6732199789880489
311,2024-10-27T10:40:45.336025,-0.11798690179074423,0.2860629780138155,0.6134625138751332,0.7764852645568401,0.7314494156658761,0.49042228654302616,2.416677463876599,2.3391826500442137,1.634905734183642,0.49255714714744075,-0.7817717296930384,-1.8466255028966871
312,2024-10-27T10:40:45.662701,-0.039461795219549324,0.3580281685786921,0.6595847737386807,0.784406171435523,0.6990465689582288,0.42637800285683264,2.4539095803498387,2.24891220515239,1.4413206207358602,0.24752833995884244,-1.0125889596139759,-2.001383865193546
313,2024-10-27T10:40:45.989391,0.0394617952195474,0.42637800285682853,0.6990465689582291,0.7844061714355232,0.6595847737386803,0.35802816857869635,2.46636220122177,2.1359323211917625,1.2331811006108864,0.000000000000003469446951953611,-1.23318110061089,-2.135932321191757
314,2024-10-27T10:40:46.315495,0.11798690179074231,0.4904222865430224,0.7314494156658763,0.7764852645568407,0.6134625138751327,0.28606297801381997,2.4539095803498387,2.0013838651935565,1.0125889596139726,-0.2475283399588251,-1.4413206207358602,-2.248912205152385
315,2024-10-27T10:40:46.640420,0.19532058063479357,0.5495143026357209,0.756466111016052,0.7607234358481217,0.56114553038126,0.2112091332124026,2.4166774638765998,1.846625502896826,0.7817717296929899,-0.4925571471474685,-1.6349057341835205,-2.339182650044291
316,2024-10-27T10:40:46.963577,0.2706819188891922,0.6030573419633383,0.7738440372687457,0.7372798477203544,0.503162118379555,0.1342225057570177,2.3550418204499546,1.673219978988042,0.5430601953966789,-0.7326121289927295,-1.811981625053279,-2.405832107980776
317,2024-10-27T10:40:47.287571,0.3433099203197096,0.6505107287332053,0.7834077127148552,0.7063912327302475,0.4400977923951473,0.055880503997043696,2.2696250447036665,1.482918336558342,0.29886485769092086,-0.9652692184408387,-1.9707601870127405,-2.448187554999185
318,2024-10-27T10:40:47.614329,0.41247118983453607,0.6913952802573602,0.785060563684533,0.6683695030629135,0.3725893738499986,-0.023025777194445214,2.161289672338326,1.2776422351298404,0.051651592802431874,-1.1881790521041855,-2.1096380795358955,-2.465821287234026
319,2024-10-27T10:40:47.938804,0.4774673392830075,0.7252981457230577,0.7787858997448224,0.6235986008532165,0.30131856046181654,-0.10169954486983988,2.0311296702647303,1.0594645458030472,-0.19608324811595784,-1.3990906940530312,-2.2272129183806864,-2.458555239856081
320,2024-10-27T10:40:48.261201,0.5376420397554315,0.7518769751462547,0.7646470822390827,0.5725306211511335,0.22700504248365283,-0.1793463539951199,1.8804593897632471,0.8305884194749056,-0.4418380470543634,-1.595874365690092,-2.322297436817614,-2.426462785164998
321,2024-10-27T10:40:48.587729,0.5923876491701267,0.7708633764101218,0.7427868844662958,0.5156812466812951,0.15039923529617072,-0.25518212972882565,1.7108002942092233,0.5933250394958458,-0.6831311803995905,-1.7765429521824483,-2.393931474608814,-2.3698679916783028
322,2024-10-27T10:40:48.912411,0.6411513482225236,0.7820656254795237,0.7134260499611446,0.45362454049634937,0.07227470173862251,-0.3284410849831733,1.5238655953874038,0.35007028341880986,-0.917526078285976,-1.9392720682795528,-2.4413916736733796,-2.2893423516983624
323,2024-10-27T10:40:49.236424,0.68344072273574,0.7853706024238165,0.6768610634332876,0.3869871491077363,-0.0065796593024510025,-0.39838345331607944,1.3215429535380097,0.10328052950914897,-1.1426558289955302,-2.0824184808941566,-2.4641987825335447,-2.1856990104033143
324,2024-10-27T10:40:49.560201,0.718828736042195,0.7807449336980614,0.6334611568748428,0.316441974630523,-0.0853675791673507,-0.4643029590675377,1.1058754158267186,-0.14455214767984656,-1.3562470799513964,-2.204536702412914,-2.4621224957781136,-2.0599845547330693
325,2024-10-27T10:40:49.886757,0.7469580411853887,0.7682353291479511,0.583664581068264,0.242701379840683,-0.16329346011712345,-0.5255339493072677,0.8790407857248015,-0.3909251421909465,-1.5561429939555866,-2.304393587182498,-2.435183779680396,-1.9134684449915607
326,2024-10-27T10:40:50.212181,0.7675445893973296,0.7479681103353744,0.5279741801448246,0.16650999475998166,-0.23957040925250397,-0.5814581155753923,0.643329631623154,-0.6333505878930231,-1.7403250288574816,-2.3809807837719146,-2.383654660480639,-1.7476301958788913
327,2024-10-27T10:40:50.538994,0.7803804984133463,0.7201479349475727,0.4669523138816586,0.08863719740730641,-0.31342818453168675,-0.6315107375402661,0.4011221567505222,-0.8693804808688018,-1.9069333207239347,-2.4335249172710993,-2.3080554774744595,-1.5641444364023052
328,2024-10-27T10:40:50.865040,0.7853361516601358,0.6850557301707668,0.4012151790118304,0.009869344645561877,-0.3841209726483046,-0.6751863855252049,0.15486416396217118,-1.0966313992751822,-2.054285464682129,-2.4614953988045145,-2.2091496286443055,-1.3648639995293375
329,2024-10-27T10:40:51.191755,0.7823615071195191,0.6430458558969704,0.3314265868906515,-0.06899816842322494,-0.4509349202288669,-0.7120440243201954,-0.09295764189427144,-1.3128085710561372,-2.180893503786838,-2.4646097833995855,-2.08793586189257,-1.1518012123434518
330,2024-10-27T10:40:51.518513,0.7714866026510405,0.5945425264098356,0.2582912603511594,-0.14716894033063124,-0.5131953422998805,-0.7417114667404672,-0.3398407646399562,-1.51572904647296,-2.2854789543591267,-2.442836622106445,-1.945638189719174,-0.9271075756334913
331,2024-10-27T10:40:51.845212,0.7528212526706826,0.5400355266832245,0.1825477174368841,-0.2238536052768187,-0.5702735352337981,-0.7638891319600436,-0.5832921868861857,-1.7033437414565955,-2.3669857160711008,-2.3963957795683557,-1.7836935291849227,-0.6930520381117626
332,2024-10-27T10:40:52.171848,0.7265539392486254,0.4800752665491811,0.10496081387173181,-0.29827780411956617,-0.6215931253768935,-0.7783530706687479,-0.8208535444392845,-1.8737581291888556,-2.424590736411007,-2.3257562138358567,-1.6037371919717296,-0.4519980846470098
333,2024-10-27T10:40:52.498512,0.6929499088236951,0.41526722267812444,0.02631401957283948,-0.3696900038266094,-0.6666358892508555,-0.7849572265047345,-1.0501259507790717,-2.0252513709705187,-2.457712321840383,-2.2316312408450982,-1.4075863710613112,-0.20637986987458148
334,2024-10-27T10:40:52.825202,0.6523484937538436,0.34626582449601867,-0.05259849280200685,-0.43736908643064526,-0.7049469865558506,-0.7836349109266649,-1.2687942209328578,-2.156293693190803,-2.466016011713946,-2.114971331376119,-1.1972217907810976,0.041322361814675294
335,2024-10-27T10:40:53.151911,0.605159685749517,0.27376784577823987,-0.13097986738292008,-0.5006316308540959,-0.7361395531324374,-0.7743994766323369,-1.4746502501352072,-2.2655618349305855,-2.4494179556535367,-1.9769545132328308,-0.9747677055183352,0.2886073216977513
336,2024-10-27T10:40:53.482483,0.5518599957912881,0.19850536865166024,-0.20803861171141746,-0.5588388140719338,-0.759898607502706,-0.7573441827235953,-1.6656153111946506,-2.3519524102056115,-2.408085760265541,-1.818974475557433,-0.742470449070893,0.5329779346481748
337,2024-10-27T10:40:53.809226,0.4929876423381593,0.12123839105419466,-0.28299658920438514,-0.6114028619248925,-0.7759842315425449,-0.7326412529790884,-1.8397610454102733,-2.4145930499207973,-2.342436796655238,-1.6426264954049563,-0.5026757512449661,0.7719665545158377
338,2024-10-27T10:40:54.135789,0.4291371164158418,0.04274715230143481,-0.35509687675086693,-0.6577929844429645,-0.7842339931667095,-0.7005401367444007,-1.99532893507242,-2.452851211023743,-2.253133985827554,-1.4496913286897506,-0.25780505075514276,1.0031598823339898
339,2024-10-27T10:40:54.462288,0.3609531784665694,-0.0361757457434605,-0.42361140809593173,-0.6975407357444916,-0.7845645865625019,-0.6613649900010325,-2.130748060914761,-2.466340563902976,-2.141079104533273,-1.2421172281727202,-0.010331043618513882,1.224223335730255
340,2024-10-27T10:40:54.785050,0.28912434758005007,-0.11473334233646074,-0.4878483258289887,-0.7302447443867679,-0.7769726734090397,-0.6155114020503086,-2.2446509652037263,-2.4549248935312553,-2.007403679158028,-1.0220002700711333,0.2372472860456933,1.4329246234601212
341,2024-10-27T10:40:55.110650,0.2143759488510874,-0.1921323655351846,-0.547158967736418,-0.7555747664012353,-0.7615349165875066,-0.5634424008660524,-2.335887460280081,-2.418719474960118,-1.8534575596071656,-0.7915631879521067,0.4824299006729103,1.6271562870080074
342,2024-10-27T10:40:55.437196,0.1374627890713859,-0.2675912426320544,-0.6009444169705908,-0.7732750200858688,-0.7384072060419778,-0.5056837774538162,-2.40353624311567,-2.35808990927718,-1.680795288567896,-0.5531329276447952,0.722740954547773,1.8049569816323778
343,2024-10-27T10:40:55.761190,0.05916153471623528,-0.3403479924489201,-0.6486615498918293,-0.7831667688801056,-0.707823084608066,-0.44281877643118717,-2.4469141985984546,-2.273648431777051,-1.4911604037887043,-0.3091171498199004,0.9557537948097451,1.9645312819571559
344,2024-10-27T10:40:56.087863,-0.019737130807200343,-0.40966791979713935,-0.6898285205124931,-0.7851501262405708,-0.6700913897052942,-0.3754822064434331,-2.465583297607361,-2.166247729631849,-1.2864678318957417,-0.061979917514536714,1.1791154657116154,2.1042678121173126
345,2024-10-27T10:40:56.410279,-0.09843649145406914,-0.47485103440463483,-0.7240296261613919,-0.7792050642919985,-0.6255931347073242,-0.3043540298873653,-2.459355020214648,-2.036972331484232,-1.0687845515280858,0.18578318589288265,1.3905704686865612,2.2227555173771165
346,2024-10-27T10:40:56.736983,-0.17614184375339395,-0.5352391193938881,-0.7509195052352416,-0.7653916160680357,-0.5747776614818493,-0.23015249667414914,-2.4282922593538983,-1.8871276559141639,-0.8403087210578044,0.4316702569988371,1.5879835382960914,2.3187979129130034
347,2024-10-27T10:40:57.060416,-0.25206852169673194,-0.5902223779336142,-0.7702266246484047,-0.7438492692997072,-0.5181581029516745,-0.15362689136609461,-2.37270868572931,-1.7182268293664384,-0.6033474816613463,0.6731983365102668,1.7693612040679594,2.3914251658767016
348,2024-10-27T10:40:57.386952,-0.3254498202688788,-0.6392455909464532,-0.7817560217647672,-0.7147955578730457,-0.4563062014958901,-0.07554996692659395,-2.2931655803795876,-1.5319754066512161,-0.36029365988632694,0.90792848208317,1.9328719204932625,2.439903888734394
349,2024-10-27T10:40:57.709951,-0.3955447376090726,-0.6818137236923574,-0.7853912731238162,-0.6785238651792977,-0.3898465355147453,0.0032898585130581486,-2.190466166881054,-1.3302541483095054,-0.11360160497028,1.133490396679623,2.0768645619107726,2.463744544989126
350,2024-10-27T10:40:58.032006,-0.46164545762261333,-0.7174969246125806,-0.7810956700807913,-0.6354004615394073,-0.31945021245817967,0.08209646307317199,-2.065647500423146,-1.115100028756976,0.13423759509452796,1.3476063637465745,2.199885095517674,2.4627063925035557
351,2024-10-27T10:40:58.358971,-0.5230844974837657,-0.74593486595613,-0.7689125894893304,-0.5858608056187409,-0.24582809200556635,0.16007406033738786,-1.9199699956610108,-0.8886856669859172,0.3807212684831526,1.5481142475208252,2.3006912641441644,2.436799914506744
352,2024-10-27T10:40:58.684231,-0.5792414478546328,-0.7668403823571407,-0.7489650556834788,-0.5304051471802969,-0.1697236078288475,0.23643523517684276,-1.7549046990896926,-0.6532973875316195,0.6233604314328955,1.7329893262014704,2.3782651305225944,2.386286713733096
353,2024-10-27T10:40:59.008894,-0.6295492377576138,-0.7800023706210041,-0.721454498182135,-0.46959347557956044,-0.09190526042452264,0.31040889504144276,-1.5721184344681554,-0.4113121332457305,0.8597049219169927,1.9003647375230113,2.4318233563851495,2.311676870768748
354,2024-10-27T10:40:59.332416,-0.6734998608388475,-0.7852879214372452,-0.6866587176606186,-0.40403986501103695,-0.013158856821772567,0.3812480564262074,-1.3734569712885505,-0.16517346300753605,1.0873681412973877,2.0485503302663575,2.4608251125859377,2.213723793273893
355,2024-10-27T10:40:59.659213,-0.7106495051991368,-0.7826436614932327,-0.6449290807288808,-0.3344062736078765,0.06572042447025478,0.4482373878853555,-1.1609263862590407,0.08263312325039109,1.3040511541168054,2.176049731348762,2.4649775403758523,2.093416608098376
356,2024-10-27T10:40:59.986072,-0.7406230349914303,-0.7720962924360752,-0.5966869718434111,-0.2613958590111302,0.14393606314801796,0.5107004334249445,-0.9366728060091712,0.32960528303617076,1.5075659026709252,2.2815754561483192,2.444238708680097,1.9519701731121557
357,2024-10-27T10:41:00.312888,-0.7631177785298644,-0.753752321240296,-0.5424195381813078,-0.18574587790777258,0.22069824034855542,0.5680064433325229,-0.7029607355760638,0.5732490998681008,1.6958573019407264,2.364061909479924,2.3988180375167936,1.7908128096118232
358,2024-10-27T10:41:00.639659,-0.7779065846581679,-0.7277969847040209,-0.4826747704446276,-0.10822024123771525,0.2952318142135393,0.6195767434663054,-0.46215019150948294,0.8111042667585971,1.867023991771256,2.4226761459392896,2.3291741832807435,1.6115718791807017
359,2024-10-27T10:41:00.965232,-0.7848401165143234,-0.6944923789340826,-0.4180559692688876,-0.02960180024708023,0.36678414724543484,0.6648905786870022,-0.21667287050486006,1.0407689303105716,2.0193375367418724,2.4568262809573422,2.2360104072467344,1.4160573506467726
360,2024-10-27T10:41:01.291695,-0.7838483595291283,-0.6541748127084348,-0.3492156531137382,0.049315558717095684,0.43463270641538937,0.7034903714255306,0.03099240578734519,1.2599239445514911,2.151259879848417,2.466167467630495,2.120267474061077,1.2062435230790123
361,2024-10-27T10:41:01.616342,-0.7749413284309365,-0.6072514114415348,-0.27684896915371787,0.12773493084423096,0.4980923592772181,0.7349863422857661,0.27834472181849346,1.466356289590623,2.2614588737506334,2.450605378972975,1.9831141519321467,0.9842490893823578
362,2024-10-27T10:41:01.942961,-0.7582089661172732,-0.5541960060457392,-0.2016866737056995,0.2048644399779062,0.5565222924115731,0.7590604460236459,0.52288632230198,1.6579814186186133,2.348821732750572,2.4102971604273495,1.8259354104485928,0.7523157418087422
363,2024-10-27T10:41:02.267074,-0.7338202354145045,-0.4955443482028274,-0.12448775307639963,0.2799252349544191,0.6093324823381046,0.7754695831572471,0.7621478344615212,1.832864307590991,2.412466269665619,2.3456498430160266,1.6503184352041051,0.5127855354250389
364,2024-10-27T10:41:02.593623,-0.7020214128969634,-0.431888700361738,-0.046031759344462034,0.3521593544153511,0.6559896535525013,0.7840480547770899,0.9937132036731575,1.9892389950340421,2.4517498041230477,2.257316233154123,1.4580366004498961,0.2680772381200879
365,2024-10-27T10:41:02.916285,-0.6631336019944614,-0.36387185509245906,0.0328890615299777,0.42083738067564425,0.6960226635244392,0.7847092357681043,1.2152440907031876,2.1255264146649644,2.4662756523262392,2.1461883206341583,1.2510315616230592,0.020661905969197158
366,2024-10-27T10:41:03.241302,-0.6175494905007606,-0.29218064418849077,0.11147776977808575,0.4852658053586064,0.7290272602788467,0.7774464495470982,1.4245034841781483,2.240350340749007,2.4558971327533747,2.013388271342566,1.0313936485752329,-0.22696206940643943
367,2024-10-27T10:41:03.565589,-0.5657293852255696,-0.21753900306272145,0.18894077929304962,0.5447940324199458,0.7546701645186196,0.7623330354826685,1.6193782898497169,2.332551285180289,2.4207190473426183,1.8602570956668554,0.8013407574929021,-0.47229418951342694
368,2024-10-27T10:41:03.891967,-0.5081965638320116,-0.14070066047221497,0.26449587123563245,0.5988209478445305,0.7726924350676446,0.7395216083167468,1.7979006685486851,2.4011982059533254,2.3610966232057113,1.6883411070182706,0.5631959546570324,-0.7128570989350512
369,2024-10-27T10:41:04.217965,-0.44553199079655476,-0.062441527390820345,0.33738009285344533,0.6468009896752976,0.7829120836500008,0.7092425170661194,1.9582679073580251,2.4455979087935797,2.2776319255566504,1.4993763072114703,0.31936401819862886,-0.9462216015821068
370,2024-10-27T10:41:04.544052,-0.3783684508494591,0.01644813811349016,0.40685746175192933,0.6882496570793669,0.7852259126013892,0.6718015189658784,2.098860623346738,2.4653020470097013,2.171167778077623,1.2952708563771635,0.07230715473088838,-1.1700311906325316
371,2024-10-27T10:41:04.870581,-0.3073841591360671,0.09517171087774665,0.47222639781957515,0.7227484028209945,0.7796105569556433,0.6275766919432495,2.2182591160434977,2.460111648883013,2.04277925211393,1.0780858044258612,-0.1754798639295589,-1.3820258444571507
372,2024-10-27T10:41:05.200529,-0.23329591262327953,0.17293424293784398,0.53282680776008,0.7499488597373534,0.7661227203833607,0.577014616799511,2.315257703524609,2.4300791268780397,1.8937628106407736,0.8500142786362137,-0.4214948928838304,-1.5800648482418251
373,2024-10-27T10:41:05.527343,-0.1568518519081579,0.2489504908860515,0.5880467506920074,0.7695763585382976,0.7448986026001665,0.5206258676522479,2.388876897347549,2.375507748381483,1.7256232166227312,0.6133593375295081,-0.6632536807248187,-1.7621484108519705
374,2024-10-27T10:41:05.854129,-0.07882390651956439,0.32245284523229767,0.6373286175070435,0.7814327014075364,0.7161525240266093,0.45897985617524045,2.438373293393545,2.2969485733201904,1.540058337969877,0.3705107146637108,-0.8983149554236602,-1.9264378586564823
375,2024-10-27T10:41:06.180346,-0.0000000000000011542024162330739,0.3926990816987251,0.6801747615878306,0.7853981633974483,0.6801747615878332,0.39269908169872486,2.463247078736349,2.1951948895758546,1.3389420025245966,0.12392068718474608,-1.1243050762117537,-2.0712742023911104
376,2024-10-27T10:41:06.506909,0.0788239065195621,0.45897985617524073,0.7161525240266072,0.7814327014075364,0.6373286175070466,0.32245284523229734,2.4632470787363494,2.071274202391112,1.1243050762117677,-0.12392068718474608,-1.3389420025245793,-2.195194889575858
